;FLAVOR:Marlin
;TIME:15542
;Filament used: 10.4751m
;Layer height: 0.2
;MINX:65.011
;MINY:72.205
;MINZ:0.2
;MAXX:169.978
;MAXY:162.794
;MAXZ:16
;Generated with Cura_SteamEngine 5.3.0
M140 S50
M105
M190 S50
M104 S205
M105
M109 S205
M82 ;absolute extrusion mode
; Ender 3 Custom Start G-code
G92 E0 ; Reset Extruder
G28 ; Home all axes
G1 Z2.0 F3000 ; Move Z Axis up little to prevent scratching of Heat Bed
G1 X0.1 Y20 Z0.3 F5000.0 ; Move to start position
G1 X0.1 Y200.0 Z0.3 F1500.0 E15 ; Draw the first line
G1 X0.4 Y200.0 Z0.3 F5000.0 ; Move to side a little
G1 X0.4 Y20 Z0.3 F1500.0 E30 ; Draw the second line
G92 E0 ; Reset Extruder
G1 Z2.0 F3000 ; Move Z Axis up little to prevent scratching of Heat Bed
G1 X5 Y20 Z0.3 F5000.0 ; Move over to prevent blob squish
G92 E0
G92 E0
G1 F2700 E-5
;LAYER_COUNT:80
;LAYER:0
M107
G0 F6000 X83.468 Y77.455 Z0.2
;TYPE:SKIRT
G1 F2700 E0
G1 F1200 X84.019 Y76.938 E0.02513
G1 X84.405 Y76.596 E0.04228
G1 X85.107 Y76.027 E0.07234
G1 X85.692 Y75.625 E0.09595
G1 X86.355 Y75.203 E0.12209
G1 X87.138 Y74.752 E0.15214
G1 X87.566 Y74.543 E0.16798
G1 X88.158 Y74.276 E0.18958
G1 X88.606 Y74.087 E0.20575
G1 X89.844 Y73.656 E0.24935
G1 X90.547 Y73.469 E0.27355
G1 X91.007 Y73.36 E0.28927
G1 X92.271 Y73.143 E0.33193
G1 X93.061 Y73.068 E0.35832
G1 X93.647 Y73.031 E0.37785
G1 X94.167 Y73.012 E0.39516
G1 X94.789 Y73.005 E0.41585
G1 X140.101 Y73.005 E1.92293
G1 X140.951 Y73.016 E1.9512
G1 X141.412 Y73.033 E1.96655
G1 X142.092 Y73.08 E1.98922
G1 X142.576 Y73.126 E2.00539
G1 X143.845 Y73.328 E2.04813
G1 X144.582 Y73.501 E2.07331
G1 X145.032 Y73.621 E2.0888
G1 X146.259 Y74.033 E2.13185
G1 X146.95 Y74.323 E2.15677
G1 X147.379 Y74.517 E2.17243
G1 X148.567 Y75.152 E2.21723
G1 X149.096 Y75.487 E2.23806
G1 X149.523 Y75.772 E2.25513
G1 X150.251 Y76.306 E2.28516
G1 X150.607 Y76.606 E2.30065
G1 X151.104 Y77.052 E2.32286
G1 X151.46 Y77.387 E2.33912
G1 X152.347 Y78.334 E2.38227
G1 X152.786 Y78.88 E2.40557
G1 X153.09 Y79.28 E2.42228
G1 X153.389 Y79.695 E2.4393
G1 X153.75 Y80.223 E2.46057
G1 X166.364 Y99.344 E3.22246
G1 X166.746 Y99.941 E3.24603
G1 X167.035 Y100.416 E3.26452
G1 X167.465 Y101.186 E3.29386
G1 X168.017 Y102.375 E3.33746
G1 X168.279 Y103.05 E3.36154
G1 X168.568 Y103.906 E3.39159
G1 X168.705 Y104.432 E3.40967
G1 X168.863 Y105.112 E3.43289
G1 X169.079 Y106.422 E3.47705
G1 X169.142 Y107.106 E3.49989
G1 X169.165 Y107.44 E3.51103
G1 X169.178 Y108.612 E3.55001
G1 X169.16 Y109.001 E3.56296
G1 X169.108 Y109.662 E3.58501
G1 X168.928 Y111.253 E3.63827
G1 X164.204 Y146.788 E4.83057
G1 X164.075 Y147.666 E4.86008
G1 X163.979 Y148.216 E4.87865
G1 X163.883 Y148.686 E4.89461
G1 X163.689 Y149.529 E4.92338
G1 X163.305 Y150.793 E4.96732
G1 X162.989 Y151.608 E4.99639
G1 X162.738 Y152.201 E5.01781
G1 X162.136 Y153.399 E5.0624
G1 X161.91 Y153.783 E5.07722
G1 X161.433 Y154.548 E5.1072
G1 X160.652 Y155.627 E5.15151
G1 X160.351 Y155.99 E5.16719
G1 X159.74 Y156.687 E5.19802
G1 X158.8 Y157.617 E5.242
G1 X158.183 Y158.146 E5.26903
G1 X157.677 Y158.555 E5.29067
G1 X156.95 Y159.091 E5.32071
G1 X156.551 Y159.346 E5.33646
G1 X156.145 Y159.592 E5.35225
G1 X155.363 Y160.038 E5.38219
G1 X154.174 Y160.611 E5.42609
G1 X153.389 Y160.921 E5.45416
G1 X152.803 Y161.133 E5.47489
G1 X151.526 Y161.502 E5.5191
G1 X150.766 Y161.664 E5.54495
G1 X150.146 Y161.779 E5.56592
G1 X148.809 Y161.937 E5.6107
G1 X148 Y161.972 E5.63763
G1 X146.611 Y161.994 E5.68384
G1 X88.391 Y161.994 E7.62024
G1 X87.054 Y161.973 E7.66471
G1 X86.245 Y161.94 E7.69164
G1 X85.346 Y161.859 E7.72167
G1 X84.894 Y161.787 E7.73689
G1 X84.096 Y161.637 E7.7639
G1 X83.504 Y161.509 E7.78404
G1 X82.238 Y161.148 E7.82783
G1 X81.476 Y160.87 E7.8548
G1 X80.896 Y160.64 E7.87556
G1 X79.677 Y160.06 E7.92046
G1 X78.945 Y159.645 E7.94844
G1 X78.467 Y159.357 E7.967
G1 X77.362 Y158.587 E8.0118
G1 X76.723 Y158.069 E8.03916
G1 X76.257 Y157.669 E8.05959
G1 X75.318 Y156.751 E8.10326
G1 X74.789 Y156.153 E8.12982
G1 X74.379 Y155.664 E8.15104
G1 X73.83 Y154.947 E8.18108
G1 X73.566 Y154.55 E8.19693
G1 X73.154 Y153.887 E8.2229
G1 X72.847 Y153.365 E8.24304
G1 X72.424 Y152.567 E8.27308
G1 X72.23 Y152.133 E8.28889
G1 X71.926 Y151.396 E8.31541
G1 X71.724 Y150.871 E8.33412
G1 X71.438 Y150.014 E8.36416
G1 X71.32 Y149.566 E8.37957
G1 X71.138 Y148.779 E8.40644
G1 X71.016 Y148.186 E8.42658
G1 X70.915 Y147.614 E8.4459
G1 X70.822 Y146.981 E8.46717
G1 X66.024 Y110.895 E9.67796
G1 X65.93 Y110.048 E9.70631
G1 X65.844 Y108.986 E9.74174
G1 X65.811 Y108.084 E9.77177
G1 X65.833 Y107.495 E9.79137
G1 X65.912 Y106.494 E9.82477
G1 X66.089 Y105.341 E9.86356
G1 X66.173 Y104.946 E9.877
G1 X66.326 Y104.305 E9.89891
G1 X66.653 Y103.234 E9.93616
G1 X66.89 Y102.601 E9.95864
G1 X67.018 Y102.283 E9.97004
G1 X67.499 Y101.256 E10.00776
G1 X67.695 Y100.892 E10.02151
G1 X67.934 Y100.473 E10.03755
G1 X68.264 Y99.924 E10.05886
G1 X68.491 Y99.563 E10.07304
G1 X81.127 Y80.405 E10.83636
G1 X81.6 Y79.71 E10.86432
G1 X81.899 Y79.293 E10.88139
G1 X82.096 Y79.033 E10.89224
G1 X82.588 Y78.416 E10.91848
G1 X83.468 Y77.455 E10.96182
G0 F6000 X83.194 Y77.163
G1 F1200 X83.745 Y76.646 E10.98695
G1 X84.153 Y76.285 E11.00507
G1 X84.88 Y75.697 E11.03617
G1 X85.465 Y75.295 E11.05978
G1 X86.155 Y74.856 E11.08698
G1 X86.938 Y74.405 E11.11704
G1 X87.402 Y74.178 E11.13422
G1 X88.003 Y73.907 E11.15614
G1 X88.474 Y73.709 E11.17314
G1 X89.741 Y73.269 E11.21775
G1 X90.455 Y73.08 E11.24231
G1 X90.939 Y72.966 E11.25885
G1 X92.233 Y72.745 E11.30251
G1 X93.036 Y72.669 E11.32934
G1 X93.632 Y72.631 E11.3492
G1 X94.162 Y72.612 E11.36684
G1 X94.784 Y72.605 E11.38753
G1 X140.106 Y72.605 E12.89495
G1 X140.966 Y72.616 E12.92355
G1 X141.44 Y72.634 E12.93933
G1 X142.13 Y72.682 E12.96233
G1 X142.639 Y72.731 E12.97934
G1 X143.908 Y72.933 E13.02208
G1 X144.685 Y73.115 E13.04862
G1 X145.159 Y73.242 E13.06494
G1 X146.414 Y73.664 E13.10898
G1 X147.115 Y73.959 E13.13428
G1 X147.568 Y74.164 E13.15082
G1 X148.756 Y74.799 E13.19562
G1 X149.318 Y75.154 E13.21773
G1 X149.76 Y75.449 E13.2354
G1 X150.488 Y75.983 E13.26543
G1 X150.874 Y76.308 E13.28222
G1 X151.378 Y76.761 E13.30475
G1 X151.752 Y77.114 E13.32186
G1 X152.659 Y78.083 E13.366
G1 X153.104 Y78.638 E13.38966
G1 X153.415 Y79.046 E13.40673
G1 X153.719 Y79.469 E13.42405
G1 X154.084 Y80.003 E13.44557
G1 X166.701 Y99.128 E14.20762
G1 X167.088 Y99.733 E14.23151
G1 X167.384 Y100.221 E14.25049
G1 X167.828 Y101.018 E14.28083
G1 X168.39 Y102.23 E14.32527
G1 X168.658 Y102.922 E14.34995
G1 X168.947 Y103.778 E14.38
G1 X169.095 Y104.341 E14.39936
G1 X169.258 Y105.047 E14.42346
G1 X169.474 Y106.357 E14.46762
G1 X169.541 Y107.079 E14.49174
G1 X169.565 Y107.436 E14.50364
G1 X169.578 Y108.63 E14.54335
G1 X169.559 Y109.032 E14.55674
G1 X169.505 Y109.707 E14.57926
G1 X169.325 Y111.306 E14.63278
G1 X164.6 Y146.846 E15.82524
G1 X164.469 Y147.735 E15.85513
G1 X164.371 Y148.296 E15.87407
G1 X164.273 Y148.776 E15.89037
G1 X164.072 Y149.645 E15.92003
G1 X163.678 Y150.938 E15.96499
G1 X163.357 Y151.764 E15.99447
G1 X163.095 Y152.381 E16.01676
G1 X162.481 Y153.602 E16.06222
G1 X162.249 Y153.995 E16.0774
G1 X161.757 Y154.783 E16.10829
G1 X160.976 Y155.862 E16.1526
G1 X160.652 Y156.254 E16.16951
G1 X160.041 Y156.951 E16.20034
G1 X159.06 Y157.921 E16.24622
G1 X158.434 Y158.457 E16.27364
G1 X157.914 Y158.877 E16.29587
G1 X157.165 Y159.428 E16.32679
G1 X156.758 Y159.688 E16.34286
G1 X156.343 Y159.939 E16.35899
G1 X155.537 Y160.398 E16.38984
G1 X154.321 Y160.983 E16.43472
G1 X153.525 Y161.297 E16.46318
G1 X152.914 Y161.517 E16.48478
G1 X151.637 Y161.886 E16.52899
G1 X150.839 Y162.057 E16.55613
G1 X150.193 Y162.176 E16.57798
G1 X148.826 Y162.337 E16.62376
G1 X148.017 Y162.372 E16.6507
G1 X146.617 Y162.394 E16.69727
G1 X88.385 Y162.394 E18.63407
G1 X87.038 Y162.373 E18.67888
G1 X86.229 Y162.34 E18.70581
G1 X85.283 Y162.254 E18.7374
G1 X84.82 Y162.18 E18.75299
G1 X84.011 Y162.028 E18.78037
G1 X83.394 Y161.894 E18.80137
G1 X82.128 Y161.533 E18.84516
G1 X81.329 Y161.242 E18.87344
G1 X80.724 Y161.001 E18.8951
G1 X79.48 Y160.408 E18.94094
G1 X78.739 Y159.988 E18.96927
G1 X78.238 Y159.685 E18.98874
G1 X77.11 Y158.898 E19.03449
G1 X76.462 Y158.373 E19.06223
G1 X75.996 Y157.973 E19.08265
G1 X75.018 Y157.016 E19.12816
G1 X74.482 Y156.41 E19.15507
G1 X74.061 Y155.907 E19.17689
G1 X73.512 Y155.19 E19.20692
G1 X73.226 Y154.761 E19.22407
G1 X72.809 Y154.09 E19.25035
G1 X72.502 Y153.568 E19.27049
G1 X72.059 Y152.73 E19.30202
G1 X71.86 Y152.286 E19.3182
G1 X71.553 Y151.54 E19.34503
G1 X71.345 Y150.998 E19.36434
G1 X71.051 Y150.116 E19.39526
G1 X70.93 Y149.656 E19.41108
G1 X70.746 Y148.86 E19.43825
G1 X70.622 Y148.256 E19.45876
G1 X70.519 Y147.672 E19.47849
G1 X70.425 Y147.034 E19.49994
G1 X65.626 Y110.939 E20.71102
G1 X65.531 Y110.08 E20.73977
G1 X65.444 Y109.001 E20.77577
G1 X65.411 Y108.069 E20.80679
G1 X65.434 Y107.464 E20.82693
G1 X65.513 Y106.463 E20.86032
G1 X65.698 Y105.258 E20.90087
G1 X65.784 Y104.853 E20.91464
G1 X65.943 Y104.188 E20.93738
G1 X66.278 Y103.094 E20.97544
G1 X66.519 Y102.452 E20.99825
G1 X66.656 Y102.113 E21.01041
G1 X67.147 Y101.066 E21.04887
G1 X67.591 Y100.267 E21.07927
G1 X67.925 Y99.711 E21.10085
G1 X68.157 Y99.343 E21.11531
G1 X80.796 Y80.18 E21.87883
G1 X81.275 Y79.477 E21.90712
G1 X81.58 Y79.051 E21.92454
G1 X81.783 Y78.784 E21.9357
G1 X82.293 Y78.146 E21.96287
G1 X83.194 Y77.163 E22.00722
G0 F6000 X82.92 Y76.871
G1 F1200 X81.998 Y77.876 E22.05258
G1 X81.471 Y78.534 E22.08062
G1 X81.262 Y78.809 E22.09211
G1 X80.95 Y79.244 E22.10991
G1 X80.465 Y79.955 E22.13854
G1 X67.823 Y99.123 E22.90224
G1 X67.587 Y99.498 E22.91698
G1 X67.248 Y100.061 E22.93884
G1 X66.797 Y100.872 E22.9697
G1 X66.294 Y101.943 E23.00906
G1 X66.148 Y102.302 E23.02195
G1 X65.904 Y102.953 E23.04507
G1 X65.554 Y104.095 E23.0848
G1 X65.395 Y104.76 E23.10754
G1 X65.307 Y105.175 E23.12165
G1 X65.114 Y106.432 E23.16395
G1 X65.035 Y107.433 E23.19734
G1 X65.011 Y108.054 E23.21801
G1 X65.044 Y109.015 E23.24999
G1 X65.132 Y110.112 E23.2866
G1 X65.228 Y110.983 E23.31574
G1 X70.028 Y147.087 E24.52713
G1 X70.123 Y147.73 E24.54875
G1 X70.228 Y148.325 E24.56885
G1 X70.354 Y148.94 E24.58973
G1 X70.54 Y149.746 E24.61724
G1 X70.664 Y150.218 E24.63347
G1 X70.966 Y151.124 E24.66523
G1 X71.18 Y151.683 E24.68514
G1 X71.49 Y152.438 E24.71229
G1 X71.694 Y152.894 E24.7289
G1 X72.148 Y153.755 E24.76128
G1 X72.464 Y154.293 E24.78203
G1 X72.886 Y154.972 E24.80862
G1 X73.179 Y155.412 E24.8262
G1 X73.743 Y156.15 E24.85709
G1 X74.175 Y156.667 E24.8795
G1 X74.718 Y157.281 E24.90677
G1 X75.735 Y158.277 E24.95411
G1 X76.201 Y158.677 E24.97454
G1 X76.858 Y159.209 E25.00265
G1 X78.009 Y160.013 E25.04935
G1 X78.532 Y160.33 E25.06969
G1 X79.283 Y160.756 E25.09841
G1 X80.576 Y161.373 E25.14606
G1 X81.181 Y161.614 E25.16772
G1 X82.018 Y161.918 E25.19734
G1 X83.284 Y162.279 E25.24112
G1 X83.926 Y162.419 E25.26298
G1 X84.746 Y162.573 E25.29073
G1 X85.22 Y162.649 E25.3067
G1 X86.213 Y162.74 E25.33986
G1 X87.022 Y162.773 E25.36679
G1 X88.379 Y162.794 E25.41193
G1 X146.623 Y162.794 E27.34913
G1 X148.034 Y162.772 E27.39607
G1 X148.843 Y162.737 E27.423
G1 X150.24 Y162.573 E27.46979
G1 X150.911 Y162.45 E27.49248
G1 X151.721 Y162.277 E27.52002
G1 X153.025 Y161.901 E27.56516
G1 X153.661 Y161.673 E27.58763
G1 X154.468 Y161.355 E27.61648
G1 X155.735 Y160.746 E27.66324
G1 X156.541 Y160.287 E27.69409
G1 X156.965 Y160.03 E27.71058
G1 X157.38 Y159.765 E27.72696
G1 X158.151 Y159.199 E27.75877
G1 X158.685 Y158.768 E27.78159
G1 X159.32 Y158.225 E27.80938
G1 X160.342 Y157.215 E27.85717
G1 X160.953 Y156.518 E27.888
G1 X161.3 Y156.097 E27.90615
G1 X162.081 Y155.018 E27.95045
G1 X162.588 Y154.207 E27.98226
G1 X162.838 Y153.782 E27.99866
G1 X163.452 Y152.561 E28.04412
G1 X163.725 Y151.92 E28.06729
G1 X164.061 Y151.055 E28.09815
G1 X164.455 Y149.762 E28.14311
G1 X164.663 Y148.866 E28.1737
G1 X164.763 Y148.376 E28.19034
G1 X164.863 Y147.804 E28.20965
G1 X164.996 Y146.904 E28.23991
G1 X169.722 Y111.359 E29.43255
G1 X169.902 Y109.752 E29.48633
G1 X169.958 Y109.064 E29.50929
G1 X169.978 Y108.649 E29.52311
G1 X169.965 Y107.432 E29.56359
G1 X169.94 Y107.052 E29.57625
G1 X169.869 Y106.292 E29.60164
G1 X169.653 Y104.982 E29.6458
G1 X169.485 Y104.251 E29.67075
G1 X169.334 Y103.676 E29.69052
G1 X169.037 Y102.794 E29.72147
G1 X168.753 Y102.062 E29.74759
G1 X168.191 Y100.85 E29.79202
G1 X167.733 Y100.026 E29.82338
G1 X167.43 Y99.526 E29.84282
G1 X167.038 Y98.912 E29.86705
G1 X154.418 Y79.783 E30.62927
G1 X154.049 Y79.243 E30.65102
G1 X153.74 Y78.813 E30.66863
G1 X153.422 Y78.396 E30.68608
G1 X152.971 Y77.833 E30.71007
G1 X152.027 Y76.823 E30.75605
G1 X151.653 Y76.47 E30.77316
G1 X151.132 Y76.002 E30.79645
G1 X150.725 Y75.66 E30.81413
G1 X149.997 Y75.126 E30.84416
G1 X149.54 Y74.821 E30.86243
G1 X148.945 Y74.446 E30.88583
G1 X147.757 Y73.811 E30.93063
G1 X147.28 Y73.595 E30.94805
G1 X146.569 Y73.295 E30.97371
G1 X145.286 Y72.863 E31.01874
G1 X144.789 Y72.729 E31.03586
G1 X143.971 Y72.538 E31.0638
G1 X142.702 Y72.336 E31.10654
G1 X142.168 Y72.284 E31.12438
G1 X141.468 Y72.235 E31.14772
G1 X140.981 Y72.216 E31.16393
G1 X140.111 Y72.205 E31.19287
G1 X94.779 Y72.205 E32.70062
G1 X94.157 Y72.212 E32.72131
G1 X93.618 Y72.231 E32.73925
G1 X93.011 Y72.27 E32.75948
G1 X92.195 Y72.347 E32.78674
G1 X90.872 Y72.572 E32.83137
G1 X90.363 Y72.691 E32.84876
G1 X89.639 Y72.882 E32.87366
G1 X88.343 Y73.331 E32.91928
G1 X87.848 Y73.538 E32.93713
G1 X87.238 Y73.813 E32.95938
G1 X86.738 Y74.058 E32.9779
G1 X85.955 Y74.509 E33.00795
G1 X85.238 Y74.965 E33.03622
G1 X84.653 Y75.367 E33.05982
G1 X83.901 Y75.974 E33.09197
G1 X83.48 Y76.346 E33.11065
G1 X82.92 Y76.871 E33.13618
G1 F2700 E28.13618
;MESH:nek del rc avto v2.STL
G0 F6000 X95.018 Y90.383
G0 X95.193 Y92.604
G0 X95.458 Y93.351
G0 X95.958 Y93.968
G0 X96.339 Y94.201
G0 X98.018 Y95.08
;TYPE:WALL-INNER
G1 F2700 E33.13618
G1 F1200 X97.309 Y95.107 E33.15978
G1 X97.038 Y95.087 E33.16882
G1 X96.396 Y94.892 E33.19114
G1 X95.996 Y94.685 E33.20612
G1 X95.589 Y94.394 E33.22276
G1 X95.164 Y93.95 E33.2432
G1 X95.013 Y93.731 E33.25205
G1 X94.697 Y93.029 E33.27765
G1 X94.641 Y92.721 E33.28806
G1 X94.606 Y92.334 E33.30099
G1 X94.605 Y92.075 E33.3096
G1 X94.638 Y91.713 E33.32169
G1 X94.765 Y91.221 E33.33859
G1 X95.019 Y90.705 E33.35772
G1 X95.235 Y90.384 E33.37059
G1 X95.579 Y90.026 E33.3871
G1 X95.986 Y89.725 E33.40394
G1 X96.412 Y89.511 E33.4198
G1 X96.874 Y89.366 E33.4359
G1 X97.358 Y89.304 E33.45213
G1 X97.884 Y89.325 E33.46964
G1 X98.201 Y89.365 E33.48027
G1 X98.813 Y89.612 E33.50222
G1 X99.222 Y89.866 E33.51823
G1 X99.591 Y90.188 E33.53452
G1 X99.905 Y90.573 E33.55104
G1 X100.143 Y90.998 E33.56725
G1 X100.312 Y91.474 E33.58405
G1 X100.391 Y91.959 E33.60039
G1 X100.392 Y92.557 E33.62028
G1 X100.347 Y92.819 E33.62912
G1 X100.133 Y93.43 E33.65065
G1 X99.885 Y93.86 E33.66716
G1 X99.603 Y94.202 E33.68191
G1 X99.234 Y94.54 E33.69855
G1 X98.811 Y94.792 E33.71493
G1 X98.348 Y94.984 E33.7316
G1 X98.018 Y95.08 E33.74303
G0 F6000 X98.041 Y94.679
G1 F1200 X97.181 Y94.714 E33.77166
G1 X96.56 Y94.528 E33.79322
G1 X96.202 Y94.342 E33.80663
G1 X95.848 Y94.087 E33.82115
G1 X95.394 Y93.602 E33.84324
G1 X95.055 Y92.852 E33.87062
G1 X94.994 Y92.19 E33.89273
G1 X95.054 Y91.706 E33.90895
G1 X95.139 Y91.375 E33.92032
G1 X95.307 Y90.994 E33.93416
G1 X95.549 Y90.634 E33.94859
G1 X95.846 Y90.326 E33.96282
G1 X96.154 Y90.097 E33.97559
G1 X96.555 Y89.885 E33.99067
G1 X96.96 Y89.758 E34.00479
G1 X97.378 Y89.705 E34.01881
G1 X98.035 Y89.731 E34.04068
G1 X98.627 Y89.968 E34.06188
G1 X98.984 Y90.19 E34.07587
G1 X99.307 Y90.471 E34.09011
G1 X99.571 Y90.795 E34.10401
G1 X99.778 Y91.164 E34.11808
G1 X99.923 Y91.575 E34.13257
G1 X99.992 Y91.992 E34.14663
G1 X99.993 Y92.636 E34.16805
G1 X99.781 Y93.229 E34.189
G1 X99.578 Y93.603 E34.20315
G1 X99.313 Y93.927 E34.21707
G1 X98.993 Y94.218 E34.23146
G1 X98.631 Y94.435 E34.2455
G1 X98.041 Y94.679 E34.26673
G0 F6000 X97.941 Y94.282
G1 F1200 X97.227 Y94.31 E34.2905
G1 X96.717 Y94.158 E34.3082
G1 X96.408 Y93.999 E34.31976
G1 X96.115 Y93.787 E34.33179
G1 X95.742 Y93.392 E34.34985
G1 X95.447 Y92.749 E34.37338
G1 X95.397 Y92.204 E34.39159
G1 X95.43 Y91.849 E34.40345
G1 X95.517 Y91.507 E34.41518
G1 X95.658 Y91.188 E34.42678
