;FLAVOR:Marlin
;TIME:13230
;Filament used: 9.32631m
;Layer height: 0.2
;MINX:52.019
;MINY:60.425
;MINZ:0.2
;MAXX:182.978
;MAXY:174.606
;MAXZ:14
;Generated with Cura_SteamEngine 5.2.2
M140 S50
M105
M190 S50
M104 S205
M105
M109 S205
M82 ;absolute extrusion mode
; Ender 3 Custom Start G-code
G92 E0 ; Reset Extruder
G28 ; Home all axes
G1 Z2.0 F3000 ; Move Z Axis up little to prevent scratching of Heat Bed
G1 X0.1 Y20 Z0.3 F5000.0 ; Move to start position
G1 X0.1 Y200.0 Z0.3 F1500.0 E15 ; Draw the first line
G1 X0.4 Y200.0 Z0.3 F5000.0 ; Move to side a little
G1 X0.4 Y20 Z0.3 F1500.0 E30 ; Draw the second line
G92 E0 ; Reset Extruder
G1 Z2.0 F3000 ; Move Z Axis up little to prevent scratching of Heat Bed
G1 X5 Y20 Z0.3 F5000.0 ; Move over to prevent blob squish
G92 E0
G92 E0
G1 F2700 E-5
;LAYER_COUNT:70
;LAYER:0
M107
G0 F6000 X81.492 Y65.626 Z0.2
;TYPE:SKIRT
G1 F2700 E0
G1 F1200 X81.849 Y65.221 E0.01796
G1 X82.68 Y64.375 E0.0574
G1 X83.245 Y63.877 E0.08245
G1 X83.458 Y63.701 E0.09164
G1 X84.509 Y62.933 E0.13493
G1 X85.127 Y62.535 E0.15938
G1 X85.937 Y62.061 E0.1906
G1 X87.005 Y61.567 E0.22973
G1 X87.511 Y61.365 E0.24786
G1 X88.396 Y61.055 E0.27904
G1 X89.047 Y60.879 E0.30147
G1 X89.67 Y60.731 E0.32277
G1 X90.59 Y60.553 E0.35394
G1 X91.552 Y60.453 E0.38611
G1 X92.001 Y60.426 E0.40107
G1 X93.305 Y60.425 E0.44444
G1 X93.987 Y60.465 E0.46716
G1 X94.92 Y60.56 E0.49835
G1 X95.674 Y60.696 E0.52384
G1 X96.676 Y60.916 E0.55796
G1 X97.878 Y61.207 E0.59909
G1 X100.367 Y61.731 E0.68369
G1 X102.807 Y62.175 E0.76618
G1 X105.312 Y62.557 E0.85046
G1 X107.792 Y62.865 E0.93358
G1 X110.315 Y63.106 E1.01787
G1 X112.799 Y63.272 E1.10068
G1 X115.345 Y63.37 E1.18542
G1 X117.841 Y63.395 E1.26844
G1 X120.364 Y63.35 E1.35237
G1 X122.882 Y63.233 E1.43621
G1 X125.366 Y63.047 E1.51906
G1 X127.919 Y62.783 E1.60442
G1 X130.357 Y62.462 E1.68621
G1 X132.874 Y62.057 E1.771
G1 X135.347 Y61.587 E1.85473
G1 X137.917 Y61.023 E1.94224
G1 X139.205 Y60.722 E1.98623
G1 X140.127 Y60.548 E2.01744
G1 X141.053 Y60.453 E2.0484
G1 X141.504 Y60.426 E2.06343
G1 X142.8 Y60.425 E2.10653
G1 X143.522 Y60.467 E2.13059
G1 X144.455 Y60.561 E2.16178
G1 X145.581 Y60.784 E2.19996
G1 X146.162 Y60.931 E2.21989
G1 X147.061 Y61.2 E2.2511
G1 X147.831 Y61.499 E2.27857
G1 X148.372 Y61.733 E2.29818
G1 X149.216 Y62.142 E2.32937
G1 X149.899 Y62.541 E2.35568
G1 X150.263 Y62.772 E2.37002
G1 X151.319 Y63.534 E2.41333
G1 X151.876 Y63.988 E2.43723
G1 X152.577 Y64.611 E2.46842
G1 X153.402 Y65.502 E2.50881
G1 X153.79 Y65.971 E2.52906
G1 X154.356 Y66.719 E2.56026
G1 X154.773 Y67.369 E2.58594
G1 X154.992 Y67.738 E2.60021
G1 X155.605 Y68.931 E2.64482
G1 X155.896 Y69.594 E2.66891
G1 X156.236 Y70.468 E2.7001
G1 X156.549 Y71.571 E2.73823
G1 X156.67 Y72.102 E2.75635
G1 X156.861 Y73.19 E2.79309
G1 X157.158 Y75.58 E2.87319
G1 X157.539 Y78.092 E2.95769
G1 X157.986 Y80.561 E3.04115
G1 X158.511 Y83.058 E3.12601
G1 X159.083 Y85.444 E3.20762
G1 X159.743 Y87.885 E3.29172
G1 X160.475 Y90.317 E3.3762
G1 X161.276 Y92.733 E3.46086
G1 X162.115 Y95.04 E3.5425
G1 X163.061 Y97.427 E3.6279
G1 X164.043 Y99.715 E3.71072
G1 X165.113 Y102.029 E3.79551
G1 X166.229 Y104.269 E3.87875
G1 X167.399 Y106.463 E3.96145
G1 X168.662 Y108.676 E4.04619
G1 X169.96 Y110.809 E4.12924
G1 X171.339 Y112.938 E4.21361
G1 X172.768 Y115.011 E4.29735
G1 X174.247 Y117.033 E4.38067
G1 X175.789 Y119.021 E4.46435
G1 X177.425 Y121.011 E4.55004
G1 X179.162 Y123.023 E4.63845
G1 X179.497 Y123.43 E4.65598
G1 X179.796 Y123.812 E4.67211
G1 X180.342 Y124.575 E4.70332
G1 X180.638 Y125.053 E4.72202
G1 X180.977 Y125.644 E4.74468
G1 X181.19 Y126.035 E4.75949
G1 X181.603 Y126.877 E4.79068
G1 X181.784 Y127.316 E4.80647
G1 X182.043 Y128.002 E4.83086
G1 X182.199 Y128.45 E4.84664
G1 X182.47 Y129.348 E4.87784
G1 X182.587 Y129.857 E4.89521
G1 X182.728 Y130.578 E4.91965
G1 X182.812 Y131.073 E4.93634
G1 X182.929 Y132.003 E4.96752
G1 X182.963 Y132.608 E4.98767
G1 X182.974 Y133.005 E5.00088
G1 X182.978 Y133.743 E5.02543
G1 X182.938 Y134.68 E5.05662
G1 X182.877 Y135.227 E5.07493
G1 X182.776 Y135.931 E5.09858
G1 X182.701 Y136.376 E5.11359
G1 X182.506 Y137.293 E5.14477
G1 X182.359 Y137.811 E5.16268
G1 X182.146 Y138.477 E5.18594
G1 X181.974 Y138.975 E5.20346
G1 X181.432 Y140.272 E5.25022
G1 X181.112 Y140.898 E5.2736
G1 X180.889 Y141.307 E5.2891
G1 X180.405 Y142.11 E5.32028
G1 X180.045 Y142.622 E5.3411
G1 X179.715 Y143.064 E5.35944
G1 X179.291 Y143.605 E5.3823
G1 X178.47 Y144.523 E5.42327
G1 X177.902 Y145.073 E5.44956
G1 X177.487 Y145.45 E5.46821
G1 X176.767 Y146.05 E5.49938
G1 X176.274 Y146.406 E5.51961
G1 X175.887 Y146.669 E5.53517
G1 X175.301 Y147.048 E5.55838
G1 X174.138 Y147.693 E5.60262
G1 X173.492 Y147.992 E5.62629
G1 X172.699 Y148.329 E5.65495
G1 X171.644 Y148.748 E5.69271
G1 X171.433 Y148.84 E5.70036
G1 X169.878 Y149.465 E5.7561
G1 X167.599 Y150.456 E5.83876
G1 X165.269 Y151.547 E5.92433
G1 X163.06 Y152.66 E6.0066
G1 X160.831 Y153.863 E6.09085
G1 X158.658 Y155.116 E6.17427
G1 X156.485 Y156.452 E6.25912
G1 X154.408 Y157.812 E6.34169
G1 X152.341 Y159.251 E6.42546
G1 X150.301 Y160.758 E6.50981
G1 X148.338 Y162.295 E6.59274
G1 X146.391 Y163.912 E6.67691
G1 X144.502 Y165.572 E6.76055
G1 X142.688 Y167.26 E6.84297
G1 X140.301 Y169.63 E6.95485
G1 X139.539 Y170.413 E6.99119
G1 X138.798 Y171.107 E7.02495
G1 X138.434 Y171.418 E7.04088
G1 X137.696 Y171.996 E7.07206
G1 X137.085 Y172.404 E7.09649
G1 X136.785 Y172.59 E7.10823
G1 X135.968 Y173.05 E7.13942
G1 X135.423 Y173.308 E7.15947
G1 X134.919 Y173.53 E7.17779
G1 X134.046 Y173.871 E7.20896
G1 X133.057 Y174.158 E7.24321
G1 X132.716 Y174.24 E7.25488
G1 X131.795 Y174.42 E7.28609
G1 X131.21 Y174.493 E7.3057
G1 X130.573 Y174.555 E7.32699
G1 X129.636 Y174.606 E7.3582
G1 X129.015 Y174.596 E7.37885
G1 X128.284 Y174.55 E7.40321
G1 X127.221 Y174.45 E7.43873
G1 X125.715 Y174.29 E7.4891
G1 X123.207 Y174.093 E7.57277
G1 X120.687 Y173.968 E7.65669
G1 X118.2 Y173.914 E7.73943
G1 X115.641 Y173.931 E7.82454
G1 X113.142 Y174.019 E7.90771
G1 X110.622 Y174.178 E7.99169
G1 X108.79 Y174.338 E8.05286
G1 X106.58 Y174.555 E8.12672
G1 X105.643 Y174.606 E8.15793
G1 X105.015 Y174.596 E8.17882
G1 X104.261 Y174.548 E8.20395
G1 X103.978 Y174.521 E8.2134
G1 X102.72 Y174.327 E8.25574
G1 X102.169 Y174.209 E8.27448
G1 X101.261 Y173.974 E8.30567
G1 X100.042 Y173.521 E8.34893
G1 X99.717 Y173.378 E8.36074
G1 X98.586 Y172.801 E8.40297
G1 X98.115 Y172.525 E8.42112
G1 X97.326 Y172.016 E8.45235
G1 X96.388 Y171.273 E8.49215
G1 X96.059 Y170.982 E8.50676
G1 X95.493 Y170.445 E8.53271
G1 X93.366 Y168.276 E8.63375
G1 X91.585 Y166.564 E8.71592
G1 X89.68 Y164.834 E8.80151
G1 X87.818 Y163.237 E8.88309
G1 X85.819 Y161.617 E8.96867
G1 X83.857 Y160.119 E9.05078
G1 X81.782 Y158.624 E9.13584
G1 X79.737 Y157.238 E9.218
G1 X77.575 Y155.859 E9.30329
G1 X75.437 Y154.58 E9.38616
G1 X73.224 Y153.34 E9.47053
G1 X71.009 Y152.178 E9.55372
G1 X68.748 Y151.074 E9.63741
G1 X66.476 Y150.042 E9.72041
G1 X63.351 Y148.744 E9.83295
G1 X62.317 Y148.336 E9.86993
G1 X61.351 Y147.922 E9.90488
G1 X61.009 Y147.764 E9.91741
G1 X60.175 Y147.335 E9.94861
G1 X59.721 Y147.061 E9.96624
G1 X59.147 Y146.689 E9.98899
G1 X58.701 Y146.385 E10.00694
G1 X57.949 Y145.825 E10.03813
G1 X57.563 Y145.496 E10.055
G1 X57.074 Y145.05 E10.07701
G1 X56.723 Y144.715 E10.09315
G1 X56.073 Y144.04 E10.12432
G1 X55.655 Y143.537 E10.14607
G1 X55.331 Y143.123 E10.16356
G1 X54.931 Y142.587 E10.1858
G1 X54.407 Y141.809 E10.217
G1 X54.165 Y141.395 E10.23295
G1 X53.822 Y140.776 E10.25648
G1 X53.403 Y139.937 E10.28768
G1 X53.123 Y139.25 E10.31235
G1 X53.005 Y138.93 E10.3237
G1 X52.839 Y138.443 E10.34081
G1 X52.664 Y137.89 E10.3601
G1 X52.419 Y136.984 E10.39132
G1 X52.303 Y136.391 E10.41141
G1 X52.179 Y135.627 E10.43716
G1 X52.127 Y135.253 E10.44972
G1 X52.037 Y134.319 E10.48092
G1 X52.019 Y133.482 E10.50877
G1 X52.038 Y132.585 E10.53861
G1 X52.105 Y131.65 E10.56979
G1 X52.177 Y131.131 E10.58722
G1 X52.31 Y130.36 E10.61324
G1 X52.394 Y129.941 E10.62745
G1 X52.617 Y129.03 E10.65865
G1 X52.787 Y128.496 E10.67728
G1 X52.921 Y128.11 E10.69087
G1 X53.212 Y127.339 E10.71828
G1 X53.71 Y126.232 E10.75866
G1 X54.105 Y125.5 E10.78632
G1 X54.379 Y125.031 E10.80439
G1 X54.886 Y124.242 E10.83558
G1 X55.229 Y123.782 E10.85467
G1 X55.674 Y123.222 E10.87846
G1 X55.948 Y122.893 E10.8927
G1 X58.079 Y120.414 E11.00143
G1 X59.643 Y118.479 E11.08418
G1 X61.196 Y116.444 E11.16932
G1 X62.651 Y114.42 E11.25223
G1 X64.059 Y112.34 E11.33577
G1 X65.417 Y110.206 E11.4199
G1 X66.71 Y108.041 E11.50377
G1 X67.922 Y105.874 E11.58635
G1 X69.108 Y103.607 E11.67145
G1 X70.205 Y101.358 E11.75468
G1 X71.235 Y99.083 E11.83774
G1 X72.216 Y96.746 E11.92204
G1 X73.14 Y94.353 E12.00735
G1 X73.967 Y92.019 E12.08971
G1 X74.73 Y89.653 E12.1724
G1 X75.444 Y87.206 E12.25718
G1 X76.083 Y84.762 E12.3412
G1 X76.648 Y82.321 E12.42453
G1 X77.144 Y79.86 E12.50803
G1 X77.572 Y77.378 E12.5918
G1 X78.026 Y74.125 E12.70105
G1 X78.145 Y73.148 E12.73378
G1 X78.297 Y72.222 E12.76499
G1 X78.418 Y71.709 E12.78252
G1 X78.563 Y71.151 E12.8017
G1 X78.837 Y70.255 E12.83286
G1 X79.118 Y69.539 E12.85844
G1 X79.289 Y69.145 E12.87273
G1 X79.878 Y67.981 E12.91612
G1 X80.242 Y67.357 E12.94015
G1 X80.749 Y66.568 E12.97134
G1 X81.492 Y65.626 E13.01124
G0 F6000 X81.792 Y65.891
G1 F1200 X82.149 Y65.486 E13.0292
G1 X82.95 Y64.67 E13.06723
G1 X83.5 Y64.186 E13.0916
G1 X83.713 Y64.01 E13.10079
G1 X84.726 Y63.269 E13.14253
G1 X85.344 Y62.871 E13.16698
G1 X86.139 Y62.407 E13.1976
G1 X87.153 Y61.938 E13.23476
G1 X87.659 Y61.736 E13.25288
G1 X88.528 Y61.433 E13.28349
G1 X89.139 Y61.268 E13.30454
G1 X89.762 Y61.12 E13.32583
G1 X90.666 Y60.946 E13.35645
G1 X91.576 Y60.852 E13.38688
G1 X92.025 Y60.825 E13.40184
G1 X93.282 Y60.824 E13.44365
G1 X93.964 Y60.864 E13.46637
G1 X94.879 Y60.958 E13.49697
G1 X95.59 Y61.087 E13.521
G1 X96.582 Y61.305 E13.55478
G1 X97.806 Y61.601 E13.59666
G1 X100.249 Y62.116 E13.67971
G1 X102.74 Y62.569 E13.76391
G1 X105.274 Y62.956 E13.84917
G1 X107.742 Y63.262 E13.93189
G1 X110.286 Y63.505 E14.01689
G1 X112.791 Y63.673 E14.10039
G1 X115.326 Y63.77 E14.18477
G1 X117.844 Y63.795 E14.26852
G1 X120.354 Y63.75 E14.35202
G1 X122.932 Y63.631 E14.43785
G1 X125.401 Y63.446 E14.5202
G1 X127.941 Y63.183 E14.60513
G1 X130.441 Y62.853 E14.68901
G1 X132.941 Y62.451 E14.77322
G1 X135.436 Y61.977 E14.85769
G1 X137.946 Y61.427 E14.94316
G1 X139.296 Y61.111 E14.98927
G1 X140.201 Y60.941 E15.0199
G1 X141.077 Y60.852 E15.04918
G1 X141.528 Y60.825 E15.06421
G1 X142.777 Y60.824 E15.10575
G1 X143.499 Y60.866 E15.12981
G1 X144.414 Y60.959 E15.1604
G1 X145.483 Y61.172 E15.19665
G1 X146.064 Y61.319 E15.21658
G1 X146.946 Y61.583 E15.24721
G1 X147.672 Y61.866 E15.27312
G1 X148.213 Y62.1 E15.29273
G1 X149.041 Y62.502 E15.32334
G1 X149.685 Y62.879 E15.34816
G1 X150.049 Y63.11 E15.3625
G1 X151.066 Y63.844 E15.40421
G1 X151.623 Y64.298 E15.42811
G1 X152.311 Y64.91 E15.45874
G1 X153.093 Y65.757 E15.49708
G1 X153.481 Y66.226 E15.51733
G1 X154.037 Y66.96 E15.54795
G1 X154.429 Y67.573 E15.57216
G1 X154.648 Y67.942 E15.58643
G1 X155.239 Y69.092 E15.62943
G1 X155.53 Y69.755 E15.65351
G1 X155.863 Y70.613 E15.68412
G1 X156.159 Y71.66 E15.72031
G1 X156.28 Y72.191 E15.73843
G1 X156.464 Y73.239 E15.77382
G1 X156.764 Y75.654 E15.85476
G1 X157.143 Y78.152 E15.93879
G1 X157.595 Y80.65 E16.02322
G1 X158.108 Y83.087 E16.10606
G1 X158.703 Y85.57 E16.19098
G1 X159.359 Y87.999 E16.27466
G1 X160.098 Y90.453 E16.3599
G1 X160.892 Y92.847 E16.44379
G1 X161.747 Y95.199 E16.52703
G1 X162.68 Y97.554 E16.61128
G1 X163.684 Y99.892 E16.69591
G1 X164.756 Y102.21 E16.78085
G1 X165.868 Y104.443 E16.86382
G1 X167.05 Y106.658 E16.94733
G1 X168.307 Y108.861 E17.03169
G1 X169.632 Y111.038 E17.11645
G1 X171.001 Y113.152 E17.20022
G1 X172.448 Y115.252 E17.28504
G1 X173.924 Y117.269 E17.36817
G1 X175.48 Y119.274 E17.45258
G1 X177.117 Y121.266 E17.53834
G1 X178.859 Y123.284 E17.627
G1 X179.182 Y123.677 E17.64392
G1 X179.481 Y124.059 E17.66006
G1 X180.017 Y124.807 E17.69067
G1 X180.292 Y125.255 E17.70815
G1 X180.625 Y125.835 E17.73039
G1 X180.838 Y126.226 E17.7452
G1 X181.412 Y127.461 E17.7905
G1 X181.537 Y127.783 E17.80199
G1 X181.821 Y128.581 E17.83016
G1 X182.086 Y129.463 E17.86079
G1 X182.195 Y129.937 E17.87697
G1 X182.334 Y130.645 E17.90096
G1 X182.418 Y131.14 E17.91766
G1 X182.532 Y132.053 E17.94827
G1 X182.563 Y132.619 E17.96712
G1 X182.578 Y133.31 E17.99011
G1 X182.578 Y133.743 E18.00451
G1 X182.538 Y134.663 E18.03514
G1 X182.481 Y135.173 E18.05221
G1 X182.382 Y135.865 E18.07546
G1 X182.307 Y136.31 E18.09047
G1 X182.114 Y137.21 E18.12108
G1 X181.977 Y137.693 E18.13778
G1 X181.872 Y138.031 E18.14955
G1 X181.596 Y138.844 E18.17811
G1 X181.073 Y140.094 E18.22317
G1 X180.761 Y140.706 E18.24602
G1 X180.538 Y141.115 E18.26152
G1 X180.062 Y141.904 E18.29216
G1 X179.725 Y142.383 E18.31164
G1 X179.395 Y142.825 E18.32999
G1 X178.978 Y143.355 E18.35242
G1 X178.187 Y144.24 E18.3919
G1 X177.634 Y144.777 E18.41754
G1 X177.219 Y145.154 E18.43619
G1 X176.511 Y145.743 E18.46682
G1 X176.049 Y146.075 E18.48574
G1 X175.397 Y146.513 E18.51186
G1 X175.086 Y146.711 E18.52413
G1 X173.965 Y147.332 E18.56675
G1 X173.334 Y147.625 E18.58989
G1 X172.551 Y147.957 E18.61818
G1 X171.401 Y148.414 E18.65933
G1 X171.284 Y148.469 E18.66363
G1 X169.719 Y149.098 E18.71973
G1 X167.405 Y150.103 E18.80364
G1 X165.126 Y151.171 E18.88735
G1 X162.884 Y152.301 E18.97086
G1 X160.633 Y153.516 E19.05594
G1 X158.428 Y154.788 E19.1406
G1 X156.303 Y156.094 E19.22356
G1 X154.182 Y157.482 E19.30787
G1 X152.097 Y158.934 E19.39238
G1 X150.045 Y160.45 E19.47723
G1 X148.081 Y161.988 E19.5602
G1 X146.155 Y163.587 E19.64346
G1 X144.229 Y165.28 E19.72875
G1 X142.401 Y166.98 E19.81178
G1 X140.044 Y169.321 E19.92227
G1 X139.253 Y170.134 E19.95999
G1 X138.539 Y170.803 E19.99254
G1 X138.175 Y171.114 E20.00846
G1 X137.449 Y171.681 E20.0391
G1 X136.875 Y172.064 E20.06205
G1 X136.575 Y172.25 E20.07379
G1 X135.772 Y172.701 E20.10442
G1 X135.262 Y172.942 E20.12318
G1 X134.758 Y173.164 E20.1415
G1 X133.9 Y173.498 E20.17212
G1 X132.963 Y173.769 E20.20457
G1 X132.622 Y173.851 E20.21623
G1 X131.719 Y174.027 E20.24683
G1 X131.171 Y174.095 E20.2652
G1 X130.534 Y174.157 E20.28648
G1 X129.615 Y174.206 E20.31709
G1 X129.033 Y174.196 E20.33645
G1 X128.322 Y174.152 E20.36015
G1 X127.263 Y174.053 E20.39552
G1 X125.752 Y173.892 E20.44606
G1 X123.222 Y173.694 E20.53047
G1 X120.717 Y173.569 E20.61389
G1 X118.17 Y173.514 E20.69862
G1 X115.66 Y173.531 E20.78211
G1 X113.104 Y173.62 E20.86717
G1 X110.562 Y173.781 E20.95189
G1 X108.717 Y173.943 E21.01349
G1 X106.541 Y174.156 E21.08621
G1 X105.621 Y174.206 E21.11685
G1 X105.033 Y174.196 E21.13641
G1 X104.299 Y174.15 E21.16087
G1 X104.016 Y174.123 E21.17033
G1 X102.803 Y173.936 E21.21115
G1 X102.252 Y173.818 E21.22989
G1 X101.361 Y173.586 E21.26052
G1 X100.203 Y173.155 E21.30161
G1 X99.878 Y173.012 E21.31342
G1 X98.788 Y172.455 E21.35413
G1 X98.317 Y172.179 E21.37229
G1 X97.544 Y171.68 E21.40289
G1 X96.653 Y170.974 E21.4407
G1 X96.324 Y170.683 E21.45531
G1 X95.779 Y170.165 E21.48032
G1 X93.663 Y168.007 E21.58084
G1 X91.829 Y166.244 E21.66546
G1 X89.983 Y164.568 E21.74838
G1 X88.045 Y162.906 E21.8333
G1 X86.085 Y161.317 E21.91722
G1 X84.071 Y159.779 E22.00151
G1 X82.034 Y158.312 E22.085
G1 X79.929 Y156.886 E22.16956
G1 X77.79 Y155.521 E22.25396
G1 X75.643 Y154.237 E22.33716
G1 X73.426 Y152.995 E22.42168
G1 X71.177 Y151.815 E22.50616
G1 X68.926 Y150.715 E22.58949
G1 X66.616 Y149.666 E22.67387
G1 X63.541 Y148.388 E22.78462
G1 X62.464 Y147.964 E22.82312
G1 X61.785 Y147.678 E22.84763
G1 X61.176 Y147.401 E22.86988
G1 X60.358 Y146.979 E22.90049
G1 X59.935 Y146.723 E22.91694
G1 X59.372 Y146.359 E22.93924
G1 X58.926 Y146.055 E22.95719
G1 X58.188 Y145.504 E22.98782
G1 X57.83 Y145.197 E23.00351
G1 X57.35 Y144.761 E23.02507
G1 X56.999 Y144.426 E23.04121
G1 X56.362 Y143.762 E23.07182
G1 X55.97 Y143.291 E23.0922
G1 X55.646 Y142.877 E23.10968
G1 X55.253 Y142.35 E23.13155
G1 X54.515 Y141.201 E23.17697
G1 X54.172 Y140.582 E23.20051
G1 X53.761 Y139.758 E23.23113
G1 X53.499 Y139.111 E23.25435
G1 X53.22 Y138.322 E23.28218
G1 X53.045 Y137.769 E23.30147
G1 X52.806 Y136.88 E23.33209
