;FLAVOR:Marlin
;TIME:18894
;Filament used: 16.3769m
;Layer height: 0.2
;MINX:71.379
;MINY:55.642
;MINZ:0.2
;MAXX:163.412
;MAXY:179.358
;MAXZ:28
;Generated with Cura_SteamEngine 5.3.0
M140 S50
M105
M190 S50
M104 S205
M105
M109 S205
M82 ;absolute extrusion mode
; Ender 3 Custom Start G-code
G92 E0 ; Reset Extruder
G28 ; Home all axes
G1 Z2.0 F3000 ; Move Z Axis up little to prevent scratching of Heat Bed
G1 X0.1 Y20 Z0.3 F5000.0 ; Move to start position
G1 X0.1 Y200.0 Z0.3 F1500.0 E15 ; Draw the first line
G1 X0.4 Y200.0 Z0.3 F5000.0 ; Move to side a little
G1 X0.4 Y20 Z0.3 F1500.0 E30 ; Draw the second line
G92 E0 ; Reset Extruder
G1 Z2.0 F3000 ; Move Z Axis up little to prevent scratching of Heat Bed
G1 X5 Y20 Z0.3 F5000.0 ; Move over to prevent blob squish
G92 E0
G92 E0
G1 F2700 E-5
;LAYER_COUNT:140
;LAYER:0
M107
G0 F6000 X83.298 Y60.6 Z0.2
;TYPE:SKIRT
G1 F2700 E0
G1 F1200 X83.866 Y59.898 E0.03003
G1 X84.493 Y59.248 E0.06007
G1 X85.175 Y58.656 E0.09011
G1 X85.907 Y58.127 E0.12015
G1 X86.683 Y57.665 E0.15019
G1 X87.497 Y57.274 E0.18022
G1 X88.342 Y56.955 E0.21026
G1 X89.212 Y56.713 E0.2403
G1 X90.1 Y56.549 E0.27033
G1 X91.223 Y56.455 E0.30781
G1 X91.83 Y56.442 E0.32801
G1 X142.793 Y56.442 E2.02304
G1 X143.637 Y56.453 E2.05112
G1 X144.539 Y56.506 E2.08117
G1 X145.432 Y56.638 E2.11119
G1 X146.31 Y56.849 E2.14123
G1 X147.166 Y57.137 E2.17127
G1 X147.993 Y57.499 E2.20129
G1 X148.785 Y57.934 E2.23135
G1 X149.536 Y58.436 E2.26139
G1 X150.239 Y59.003 E2.29143
G1 X150.889 Y59.63 E2.32147
G1 X151.481 Y60.312 E2.3515
G1 X152.011 Y61.043 E2.38154
G1 X152.473 Y61.819 E2.41157
G1 X152.866 Y62.632 E2.44161
G1 X153.184 Y63.477 E2.47164
G1 X153.427 Y64.347 E2.50168
G1 X153.592 Y65.235 E2.53172
G1 X153.687 Y66.365 E2.56944
G1 X153.7 Y66.972 E2.58963
G1 X153.7 Y93.108 E3.45892
G1 X153.737 Y95.714 E3.5456
G1 X153.846 Y98.279 E3.63099
G1 X154.024 Y100.786 E3.71459
G1 X154.275 Y103.327 E3.79951
G1 X154.596 Y105.835 E3.88361
G1 X154.99 Y108.34 E3.96795
G1 X155.452 Y110.827 E4.05208
G1 X155.993 Y113.341 E4.13761
G1 X156.592 Y115.787 E4.22137
G1 X157.265 Y118.231 E4.30568
G1 X158.01 Y120.666 E4.39038
G1 X158.821 Y123.068 E4.4747
G1 X159.711 Y125.481 E4.56024
G1 X160.652 Y127.825 E4.64425
G1 X161.292 Y129.318 E4.69828
G1 X161.561 Y130.017 E4.72319
G1 X161.729 Y130.505 E4.74035
G1 X161.921 Y131.107 E4.76137
G1 X162.151 Y131.98 E4.7914
G1 X162.302 Y132.871 E4.82146
G1 X162.378 Y133.938 E4.85703
G1 X162.391 Y134.89 E4.8887
G1 X162.372 Y136.395 E4.93876
G1 X162.368 Y139.097 E5.02863
G1 X162.434 Y141.584 E5.11138
G1 X162.603 Y144.608 E5.21211
G1 X162.612 Y145.546 E5.24331
G1 X162.591 Y146.09 E5.26142
G1 X162.494 Y147.969 E5.324
G1 X162.436 Y150.484 E5.40767
G1 X162.454 Y153.519 E5.50862
G1 X162.387 Y156.81 E5.6181
G1 X162.331 Y157.712 E5.64816
G1 X162.195 Y158.605 E5.6782
G1 X161.895 Y159.761 E5.71792
G1 X161.672 Y160.451 E5.74204
G1 X161.356 Y161.297 E5.77208
G1 X160.967 Y162.112 E5.80211
G1 X160.507 Y162.889 E5.83215
G1 X159.699 Y163.965 E5.8769
G1 X157.986 Y165.957 E5.96428
G1 X156.397 Y167.912 E6.04808
G1 X154.845 Y169.938 E6.13296
G1 X153.364 Y171.986 E6.21702
G1 X152.309 Y173.543 E6.27958
G1 X151.868 Y174.177 E6.30526
G1 X151.32 Y174.895 E6.3353
G1 X150.71 Y175.561 E6.36534
G1 X150.044 Y176.17 E6.39536
G1 X149.326 Y176.719 E6.42542
G1 X148.563 Y177.202 E6.45546
G1 X147.76 Y177.615 E6.48549
G1 X146.924 Y177.956 E6.51552
G1 X146.06 Y178.221 E6.54558
G1 X145.177 Y178.409 E6.5756
G1 X144.281 Y178.518 E6.60562
G1 X143.813 Y178.543 E6.62121
G1 X143.174 Y178.558 E6.64247
G1 X92.066 Y178.557 E8.34233
G1 X91.365 Y178.547 E8.36565
G1 X90.463 Y178.494 E8.3957
G1 X89.57 Y178.362 E8.42572
G1 X88.691 Y178.151 E8.45579
G1 X87.835 Y177.863 E8.48583
G1 X87.008 Y177.501 E8.51586
G1 X86.216 Y177.067 E8.54589
G1 X85.466 Y176.564 E8.57593
G1 X84.763 Y175.997 E8.60597
G1 X84.113 Y175.371 E8.63598
G1 X83.52 Y174.689 E8.66604
G1 X83.064 Y174.066 E8.69172
G1 X82.585 Y173.358 E8.72015
G1 X81.928 Y172.355 E8.76003
G1 X80.493 Y170.293 E8.84359
G1 X78.969 Y168.233 E8.92881
G1 X77.431 Y166.27 E9.01176
G1 X75.247 Y163.661 E9.12492
G1 X74.699 Y162.943 E9.15496
G1 X74.216 Y162.18 E9.185
G1 X73.803 Y161.377 E9.21503
G1 X73.462 Y160.541 E9.24506
G1 X73.147 Y159.478 E9.28194
G1 X73.024 Y158.941 E9.30026
G1 X72.825 Y157.974 E9.3331
G1 X72.699 Y157.309 E9.35561
G1 X72.571 Y156.415 E9.38565
G1 X72.522 Y155.513 E9.41569
G1 X72.529 Y155.011 E9.43239
G1 X72.567 Y154.032 E9.46498
G1 X72.633 Y151.365 E9.55371
G1 X72.64 Y148.84 E9.63769
G1 X72.576 Y145.743 E9.74072
G1 X72.588 Y142.89 E9.83561
G1 X72.532 Y140.39 E9.91878
G1 X72.402 Y137.841 E10.00367
G1 X72.262 Y136.113 E10.06133
G1 X72.202 Y135.253 E10.09001
G1 X72.179 Y134.35 E10.12005
G1 X72.236 Y133.449 E10.15008
G1 X72.411 Y132.372 E10.18637
G1 X72.628 Y131.403 E10.2194
G1 X72.738 Y130.971 E10.23422
G1 X73 Y130.107 E10.26425
G1 X73.293 Y129.366 E10.29075
G1 X73.552 Y128.781 E10.31203
G1 X74.581 Y126.371 E10.39919
G1 X75.522 Y123.979 E10.48468
G1 X76.377 Y121.612 E10.56839
G1 X77.161 Y119.232 E10.65173
G1 X77.906 Y116.743 E10.73815
G1 X78.547 Y114.351 E10.82051
G1 X79.148 Y111.825 E10.90687
G1 X79.661 Y109.358 E10.99068
G1 X80.107 Y106.871 E11.07472
G1 X80.487 Y104.335 E11.16001
G1 X80.793 Y101.809 E11.24464
G1 X81.024 Y99.315 E11.32794
G1 X81.189 Y96.75 E11.41343
G1 X81.279 Y94.215 E11.4978
G1 X81.3 Y92.291 E11.56179
G1 X81.301 Y67.163 E12.39756
G1 X81.311 Y66.498 E12.41968
G1 X81.365 Y65.596 E12.44973
G1 X81.498 Y64.703 E12.47976
G1 X81.709 Y63.825 E12.50979
G1 X81.998 Y62.969 E12.53984
G1 X82.361 Y62.142 E12.56988
G1 X82.795 Y61.351 E12.59989
G1 X83.298 Y60.6 E12.62995
G0 F6000 X82.987 Y60.348
G1 F1200 X83.578 Y59.62 E12.66114
G1 X84.205 Y58.97 E12.69118
G1 X84.913 Y58.354 E12.72239
G1 X85.702 Y57.783 E12.75479
G1 X86.478 Y57.321 E12.78482
G1 X87.324 Y56.913 E12.81606
G1 X88.235 Y56.57 E12.84844
G1 X89.139 Y56.32 E12.87964
G1 X90.067 Y56.15 E12.91101
G1 X91.214 Y56.055 E12.94929
G1 X91.821 Y56.042 E12.96949
G1 X142.798 Y56.042 E14.66499
G1 X143.66 Y56.054 E14.69366
G1 X144.597 Y56.11 E14.72488
G1 X145.49 Y56.242 E14.75491
G1 X146.438 Y56.47 E14.78734
G1 X147.294 Y56.758 E14.81738
G1 X148.186 Y57.148 E14.84976
G1 X148.978 Y57.583 E14.87981
G1 X149.758 Y58.103 E14.91099
G1 X150.517 Y58.715 E14.94342
G1 X151.167 Y59.342 E14.97346
G1 X151.805 Y60.077 E15.00583
G1 X152.355 Y60.838 E15.03706
G1 X152.817 Y61.614 E15.06709
G1 X153.24 Y62.491 E15.09948
G1 X153.569 Y63.369 E15.13066
G1 X153.82 Y64.274 E15.1619
G1 X153.991 Y65.201 E15.19325
G1 X154.086 Y66.331 E15.23097
G1 X154.1 Y66.963 E15.252
G1 X154.1 Y93.108 E16.12158
G1 X154.137 Y95.697 E16.2077
G1 X154.246 Y98.262 E16.29309
G1 X154.422 Y100.747 E16.37595
G1 X154.672 Y103.276 E16.46047
G1 X154.993 Y105.784 E16.54457
G1 X155.383 Y108.267 E16.62817
G1 X155.843 Y110.743 E16.71193
G1 X156.382 Y113.246 E16.79709
G1 X156.978 Y115.681 E16.88047
G1 X157.65 Y118.125 E16.96477
G1 X158.389 Y120.538 E17.04871
G1 X159.2 Y122.94 E17.13303
G1 X160.082 Y125.332 E17.21782
G1 X161.02 Y127.667 E17.30152
G1 X161.665 Y129.174 E17.35604
G1 X161.939 Y129.887 E17.38144
G1 X162.11 Y130.383 E17.39889
G1 X162.308 Y131.005 E17.42061
G1 X162.538 Y131.878 E17.45063
G1 X162.701 Y132.843 E17.48318
G1 X162.778 Y133.933 E17.51953
G1 X162.791 Y134.895 E17.55153
G1 X162.772 Y136.4 E17.60159
G1 X162.768 Y139.098 E17.69132
G1 X162.834 Y141.573 E17.77367
G1 X163.003 Y144.604 E17.87464
G1 X163.012 Y145.561 E17.90647
G1 X162.894 Y147.978 E17.98696
G1 X162.836 Y150.493 E18.07063
G1 X162.854 Y153.527 E18.17154
G1 X162.786 Y156.835 E18.28159
G1 X162.73 Y157.737 E18.31165
G1 X162.582 Y158.705 E18.34422
G1 X162.276 Y159.884 E18.38473
G1 X162.047 Y160.591 E18.40945
G1 X161.731 Y161.437 E18.43948
G1 X161.311 Y162.316 E18.47188
G1 X160.827 Y163.129 E18.50335
G1 X160.002 Y164.226 E18.54901
G1 X158.289 Y166.218 E18.63639
G1 X156.715 Y168.155 E18.7194
G1 X155.163 Y170.181 E18.80429
G1 X153.688 Y172.22 E18.88799
G1 X152.637 Y173.771 E18.9503
G1 X152.186 Y174.42 E18.97659
G1 X151.638 Y175.138 E19.00663
G1 X150.98 Y175.856 E19.03902
G1 X150.287 Y176.488 E19.07022
G1 X149.569 Y177.037 E19.10028
G1 X148.746 Y177.558 E19.13268
G1 X147.943 Y177.971 E19.16271
G1 X147.041 Y178.338 E19.1951
G1 X146.143 Y178.612 E19.22633
G1 X145.225 Y178.806 E19.25753
G1 X144.329 Y178.915 E19.28755
G1 X143.822 Y178.943 E19.30444
G1 X143.174 Y178.958 E19.326
G1 X92.06 Y178.957 E21.02606
G1 X91.342 Y178.946 E21.04994
G1 X90.405 Y178.89 E21.08116
G1 X89.512 Y178.758 E21.11119
G1 X88.563 Y178.53 E21.14365
G1 X87.707 Y178.242 E21.17369
G1 X86.816 Y177.852 E21.20604
G1 X85.993 Y177.399 E21.23728
G1 X85.243 Y176.896 E21.26732
G1 X84.486 Y176.285 E21.29968
G1 X83.811 Y175.633 E21.33089
G1 X83.197 Y174.925 E21.36206
G1 X82.733 Y174.29 E21.38822
G1 X82.25 Y173.577 E21.41686
G1 X81.594 Y172.574 E21.45672
G1 X80.171 Y170.531 E21.53953
G1 X78.647 Y168.471 E21.62476
G1 X77.116 Y166.517 E21.70732
G1 X74.929 Y163.904 E21.82065
G1 X74.381 Y163.186 E21.8507
G1 X73.86 Y162.363 E21.88309
G1 X73.447 Y161.56 E21.91313
G1 X73.078 Y160.655 E21.94563
G1 X72.763 Y159.592 E21.98251
G1 X72.632 Y159.022 E22.00196
G1 X72.432 Y158.048 E22.03503
G1 X72.303 Y157.366 E22.05812
G1 X72.175 Y156.472 E22.08816
G1 X72.122 Y155.507 E22.1203
G1 X72.129 Y154.995 E22.13733
G1 X72.167 Y154.016 E22.16992
G1 X72.233 Y151.355 E22.25845
G1 X72.24 Y148.839 E22.34213
G1 X72.176 Y145.741 E22.44519
G1 X72.188 Y142.888 E22.54009
G1 X72.132 Y140.399 E22.62289
G1 X72.003 Y137.873 E22.70702
G1 X71.863 Y136.141 E22.76481
G1 X71.802 Y135.263 E22.79408
G1 X71.779 Y134.36 E22.82413
G1 X71.841 Y133.385 E22.85662
G1 X72.016 Y132.308 E22.89291
G1 X72.24 Y131.304 E22.92713
G1 X72.355 Y130.855 E22.94254
G1 X72.617 Y129.991 E22.97257
G1 X72.927 Y129.204 E23.0007
G1 X73.186 Y128.619 E23.02198
G1 X74.213 Y126.214 E23.10896
G1 X75.15 Y123.833 E23.19407
G1 X76.001 Y121.476 E23.27741
G1 X76.781 Y119.107 E23.36037
G1 X77.523 Y116.628 E23.44643
G1 X78.161 Y114.247 E23.52842
G1 X78.756 Y111.744 E23.61399
G1 X79.269 Y109.277 E23.6978
G1 X79.713 Y106.8 E23.7815
G1 X80.091 Y104.276 E23.86638
G1 X80.396 Y101.761 E23.95064
G1 X80.626 Y99.278 E24.03358
G1 X80.789 Y96.736 E24.1183
G1 X80.879 Y94.201 E24.20267
G1 X80.9 Y92.287 E24.26633
G1 X80.901 Y67.157 E25.10216
G1 X80.912 Y66.474 E25.12488
G1 X80.969 Y65.537 E25.1561
G1 X81.102 Y64.644 E25.18613
G1 X81.33 Y63.697 E25.21853
G1 X81.619 Y62.841 E25.24858
G1 X82.01 Y61.95 E25.28094
G1 X82.444 Y61.159 E25.31095
G1 X82.987 Y60.348 E25.34341
G0 F6000 X82.676 Y60.096
G1 F1200 X83.29 Y59.342 E25.37575
G1 X83.942 Y58.668 E25.40694
G1 X84.65 Y58.052 E25.43816
G1 X85.497 Y57.439 E25.47293
G1 X86.273 Y56.977 E25.50297
G1 X87.183 Y56.539 E25.53656
G1 X88.128 Y56.184 E25.57013
G1 X89.032 Y55.934 E25.60133
G1 X90.034 Y55.751 E25.63521
G1 X91.205 Y55.655 E25.67429
G1 X91.812 Y55.642 E25.69448
G1 X142.804 Y55.642 E27.39048
G1 X143.684 Y55.655 E27.41975
G1 X144.655 Y55.714 E27.45211
G1 X145.584 Y55.853 E27.48335
G1 X146.532 Y56.081 E27.51578
G1 X147.454 Y56.391 E27.54813
G1 X148.379 Y56.797 E27.58173
G1 X149.171 Y57.232 E27.61179
G1 X149.98 Y57.77 E27.6441
G1 X150.795 Y58.427 E27.67892
G1 X151.445 Y59.054 E27.70896
G1 X152.107 Y59.815 E27.7425
G1 X152.699 Y60.633 E27.77609
G1 X153.161 Y61.409 E27.80613
G1 X153.615 Y62.351 E27.84091
G1 X153.944 Y63.229 E27.87209
G1 X154.213 Y64.201 E27.90563
G1 X154.39 Y65.167 E27.9383
G1 X154.485 Y66.297 E27.97602
G1 X154.5 Y66.954 E27.99787
G1 X154.5 Y93.108 E28.86776
G1 X154.537 Y95.68 E28.95331
G1 X154.646 Y98.245 E29.0387
G1 X154.82 Y100.708 E29.12083
G1 X155.069 Y103.225 E29.20495
G1 X155.39 Y105.733 E29.28905
G1 X155.776 Y108.194 E29.3719
G1 X156.234 Y110.659 E29.45529
G1 X156.771 Y113.151 E29.54008
G1 X157.364 Y115.575 E29.62308
G1 X158.035 Y118.019 E29.70737
G1 X158.768 Y120.41 E29.79055
G1 X159.579 Y122.812 E29.87487
G1 X160.453 Y125.183 E29.95892
G1 X161.388 Y127.51 E30.04233
G1 X162.038 Y129.031 E30.09734
G1 X162.317 Y129.757 E30.12321
G1 X162.491 Y130.262 E30.14098
G1 X162.695 Y130.903 E30.16335
G1 X162.925 Y131.776 E30.19338
G1 X163.1 Y132.815 E30.22842
G1 X163.178 Y133.928 E30.26553
G1 X163.191 Y134.9 E30.29786
G1 X163.172 Y136.405 E30.34792
G1 X163.168 Y139.099 E30.43753
G1 X163.234 Y141.562 E30.51948
G1 X163.403 Y144.6 E30.62068
G1 X163.412 Y145.581 E30.65331
G1 X163.294 Y147.998 E30.73379
G1 X163.236 Y150.502 E30.8171
G1 X163.254 Y153.535 E30.91798
G1 X163.185 Y156.86 E31.02859
G1 X163.129 Y157.762 E31.05865
G1 X162.969 Y158.805 E31.09375
G1 X162.657 Y160.007 E31.13505
G1 X162.422 Y160.731 E31.16037
G1 X162.106 Y161.577 E31.1904
G1 X161.655 Y162.521 E31.2252
G1 X161.171 Y163.334 E31.25667
G1 X160.305 Y164.487 E31.30463
G1 X158.592 Y166.479 E31.39201
G1 X157.033 Y168.398 E31.47425
G1 X155.481 Y170.424 E31.55913
G1 X154.012 Y172.454 E31.64247
G1 X152.965 Y173.999 E31.70455
G1 X152.504 Y174.663 E31.73143
G1 X151.956 Y175.381 E31.76148
G1 X151.25 Y176.152 E31.79625
G1 X150.557 Y176.784 E31.82744
G1 X149.812 Y177.355 E31.85866
G1 X148.929 Y177.914 E31.89342
G1 X148.094 Y178.342 E31.92463
G1 X147.158 Y178.721 E31.95821
G1 X146.26 Y178.995 E31.98944
G1 X145.273 Y179.203 E32.02299
G1 X144.377 Y179.312 E32.05301
G1 X143.831 Y179.343 E32.0712
G1 X143.174 Y179.358 E32.09306
G1 X92.054 Y179.357 E33.79332
G1 X91.318 Y179.345 E33.8178
G1 X90.347 Y179.286 E33.85015
G1 X89.454 Y179.154 E33.88018
G1 X88.435 Y178.909 E33.91504
G1 X87.579 Y178.621 E33.94507
G1 X86.623 Y178.202 E33.97979
G1 X85.77 Y177.731 E34.0122
G1 X85.02 Y177.228 E34.04224
G1 X84.208 Y176.573 E34.07693
G1 X83.533 Y175.921 E34.10815
G1 X82.874 Y175.161 E34.14161
G1 X82.402 Y174.514 E34.16824
G1 X81.915 Y173.796 E34.1971
G1 X81.259 Y172.793 E34.23696
G1 X79.849 Y170.769 E34.319
G1 X78.325 Y168.709 E34.40423
G1 X76.801 Y166.764 E34.48641
G1 X74.611 Y164.147 E34.59991
G1 X74.063 Y163.429 E34.62995
G1 X73.504 Y162.546 E34.66471
G1 X73.091 Y161.743 E34.69475
G1 X72.694 Y160.769 E34.72973
G1 X72.379 Y159.706 E34.76661
G1 X72.24 Y159.102 E34.78722
G1 X72.039 Y158.122 E34.82049
G1 X71.907 Y157.423 E34.84415
G1 X71.779 Y156.529 E34.87419
G1 X71.722 Y155.502 E34.9084
G1 X71.729 Y154.979 E34.9258
G1 X71.767 Y154 E34.95838
G1 X71.833 Y151.345 E35.04672
G1 X71.84 Y148.838 E35.1301
G1 X71.776 Y145.739 E35.2332
G1 X71.788 Y142.886 E35.32809
G1 X71.732 Y140.408 E35.41053
G1 X71.604 Y137.905 E35.49389
G1 X71.464 Y136.169 E35.55181
G1 X71.402 Y135.273 E35.58169
G1 X71.379 Y134.37 E35.61173
G1 X71.446 Y133.321 E35.64669
G1 X71.621 Y132.244 E35.68298
G1 X71.853 Y131.205 E35.71839
G1 X71.972 Y130.739 E35.73439
G1 X72.234 Y129.875 E35.76441
G1 X72.561 Y129.042 E35.79418
G1 X72.82 Y128.457 E35.81546
G1 X73.845 Y126.057 E35.90226
G1 X74.778 Y123.687 E35.98697
G1 X75.625 Y121.34 E36.06996
G1 X76.401 Y118.982 E36.15253
G1 X77.14 Y116.513 E36.23825
G1 X77.775 Y114.143 E36.31985
G1 X78.364 Y111.663 E36.40463
G1 X78.877 Y109.196 E36.48844
G1 X79.319 Y106.729 E36.5718
G1 X79.695 Y104.217 E36.65628
G1 X79.999 Y101.713 E36.74017
G1 X80.228 Y99.241 E36.82275
G1 X80.389 Y96.722 E36.9067
G1 X80.479 Y94.187 E36.99107
G1 X80.5 Y92.283 E37.0544
G1 X80.501 Y67.151 E37.89029
G1 X80.513 Y66.45 E37.91361
G1 X80.573 Y65.478 E37.946
G1 X80.706 Y64.585 E37.97603
G1 X80.941 Y63.603 E38.00961
G1 X81.24 Y62.713 E38.04084
G1 X81.659 Y61.758 E38.07553
G1 X82.093 Y60.967 E38.10553
G1 X82.676 Y60.096 E38.1404
G1 F2700 E33.1404
G0 F6000 X85.502 Y132.62
G0 X86.081 Y132.807
G1 F2700 E38.1404
G1 F1200 X86.101 Y133.495 E38.16329
G1 X86.183 Y133.651 E38.16915
G1 X86.483 Y133.869 E38.18148
G1 X86.092 Y134.86 E38.21692
G1 X86.088 Y134.995 E38.22141
G1 X86.279 Y135.582 E38.24194
G1 X86.381 Y135.7 E38.24713
G1 X86.785 Y135.897 E38.26208
G1 X86.369 Y136.13 E38.27794
G1 X86.285 Y136.222 E38.28208
G1 X86.269 Y136.33 E38.28571
G1 X86.406 Y137.366 E38.32047
G1 X86.46 Y137.479 E38.32463
G1 X86.521 Y137.522 E38.32712
G1 X87.25 Y137.856 E38.35379
G1 X86.718 Y138.482 E38.38111
G1 X86.67 Y138.62 E38.38597
G1 X86.698 Y139.347 E38.41017
G1 X86.103 Y140.201 E38.44479
G1 X86.067 Y140.32 E38.44892
G1 X86.101 Y140.426 E38.45262
G1 X86.563 Y141.114 E38.48019
G1 X86.044 Y141.376 E38.49952
G1 X85.956 Y141.465 E38.50369
G1 X85.934 Y141.555 E38.50677
