;FLAVOR:Marlin
;TIME:8767
;Filament used: 4.8778m
;Layer height: 0.2
;MINX:80.76
;MINY:79.756
;MINZ:0.2
;MAXX:154.24
;MAXY:164.391
;MAXZ:7.6
;Generated with Cura_SteamEngine 5.2.2
M140 S50
M105
M190 S50
M104 S200
M105
M109 S200
M82 ;absolute extrusion mode
; Ender 3 Custom Start G-code
G92 E0 ; Reset Extruder
G28 ; Home all axes
G1 Z2.0 F3000 ; Move Z Axis up little to prevent scratching of Heat Bed
G1 X0.1 Y20 Z0.3 F5000.0 ; Move to start position
G1 X0.1 Y200.0 Z0.3 F1500.0 E15 ; Draw the first line
G1 X0.4 Y200.0 Z0.3 F5000.0 ; Move to side a little
G1 X0.4 Y20 Z0.3 F1500.0 E30 ; Draw the second line
G92 E0 ; Reset Extruder
G1 Z2.0 F3000 ; Move Z Axis up little to prevent scratching of Heat Bed
G1 X5 Y20 Z0.3 F5000.0 ; Move over to prevent blob squish
G92 E0
G92 E0
G1 F2700 E-5
;LAYER_COUNT:38
;LAYER:0
M107
G0 F6000 X88.913 Y92.077 Z0.2
;TYPE:SKIRT
G1 F2700 E0
G1 F1200 X89.609 Y91.448 E0.0312
G1 X90.355 Y90.88 E0.06239
G1 X91.148 Y90.379 E0.09359
G1 X91.96 Y89.955 E0.12405
G1 X93.014 Y89.46 E0.16278
G1 X95.355 Y88.32 E0.24939
G1 X97.559 Y87.168 E0.3321
G1 X99.754 Y85.941 E0.41574
G1 X101.932 Y84.64 E0.50012
G1 X104.037 Y83.301 E0.5831
G1 X106.454 Y81.662 E0.68023
G1 X107.252 Y81.169 E0.71142
G1 X108.089 Y80.746 E0.74262
G1 X108.959 Y80.396 E0.77381
G1 X109.856 Y80.121 E0.80501
G1 X110.772 Y79.924 E0.83617
G1 X111.703 Y79.805 E0.86739
G1 X112.468 Y79.767 E0.89287
G1 X113.157 Y79.757 E0.91579
G1 X121.668 Y79.756 E1.19886
G1 X122.528 Y79.767 E1.22747
G1 X123.465 Y79.82 E1.25868
G1 X124.393 Y79.953 E1.28986
G1 X125.307 Y80.165 E1.32107
G1 X126.199 Y80.453 E1.35225
G1 X127.064 Y80.817 E1.38346
G1 X127.894 Y81.253 E1.41464
G1 X128.543 Y81.66 E1.44012
G1 X131.003 Y83.327 E1.53896
G1 X133.123 Y84.673 E1.62248
G1 X135.292 Y85.967 E1.70649
G1 X137.486 Y87.191 E1.79005
G1 X139.737 Y88.366 E1.8745
G1 X141.988 Y89.461 E1.95776
G1 X143.041 Y89.955 E1.99644
G1 X143.872 Y90.39 E2.02764
G1 X144.664 Y90.893 E2.05885
G1 X145.409 Y91.462 E2.09003
G1 X146.104 Y92.092 E2.12122
G1 X146.742 Y92.78 E2.15243
G1 X147.319 Y93.519 E2.18362
G1 X147.821 Y94.287 E2.21413
G1 X148.251 Y95.011 E2.24214
G1 X152.441 Y102.267 E2.52082
G1 X152.842 Y102.983 E2.54812
G1 X153.264 Y103.821 E2.57932
G1 X153.613 Y104.691 E2.6105
G1 X153.887 Y105.588 E2.6417
G1 X154.084 Y106.506 E2.67292
G1 X154.201 Y107.436 E2.7041
G1 X154.239 Y108.373 E2.73529
G1 X154.201 Y109.26 E2.76482
G1 X154.146 Y109.922 E2.78691
G1 X153.962 Y112.544 E2.87434
G1 X153.858 Y115.031 E2.95713
G1 X153.824 Y117.554 E3.04105
G1 X153.862 Y120.078 E3.12501
G1 X153.971 Y122.606 E3.20917
G1 X154.151 Y125.137 E3.29356
G1 X154.2 Y125.713 E3.31279
G1 X154.24 Y126.651 E3.34401
G1 X154.202 Y127.563 E3.37437
G1 X154.146 Y128.229 E3.3966
G1 X153.961 Y130.85 E3.484
G1 X153.858 Y133.325 E3.56639
G1 X153.824 Y135.85 E3.65037
G1 X153.862 Y138.381 E3.73457
G1 X153.969 Y140.891 E3.81812
G1 X154.15 Y143.424 E3.90259
G1 X154.201 Y144.03 E3.92281
G1 X154.239 Y144.967 E3.954
G1 X154.197 Y145.904 E3.9852
G1 X154.076 Y146.834 E4.01639
G1 X153.876 Y147.75 E4.04758
G1 X153.598 Y148.646 E4.07878
G1 X153.245 Y149.515 E4.10998
G1 X152.842 Y150.31 E4.13962
G1 X152.398 Y151.103 E4.16985
G1 X148.268 Y158.257 E4.4446
G1 X147.822 Y159.008 E4.47365
G1 X147.309 Y159.793 E4.50484
G1 X146.73 Y160.531 E4.53604
G1 X146.091 Y161.217 E4.56722
G1 X145.395 Y161.846 E4.59842
G1 X144.649 Y162.414 E4.62961
G1 X143.857 Y162.916 E4.66079
G1 X143.025 Y163.349 E4.69199
G1 X142.159 Y163.709 E4.72318
G1 X141.265 Y163.994 E4.75439
G1 X140.351 Y164.202 E4.78557
G1 X139.422 Y164.332 E4.81677
G1 X138.53 Y164.381 E4.84648
G1 X137.843 Y164.391 E4.86933
G1 X129.176 Y164.391 E5.1576
G1 X128.472 Y164.381 E5.18102
G1 X127.535 Y164.328 E5.21223
G1 X126.607 Y164.195 E5.24341
G1 X125.693 Y163.983 E5.27462
G1 X124.801 Y163.695 E5.30579
G1 X123.936 Y163.331 E5.33701
G1 X123.106 Y162.895 E5.36819
G1 X122.454 Y162.486 E5.39379
G1 X120.001 Y160.823 E5.49236
G1 X117.92 Y159.5 E5.57438
G1 X115.742 Y158.201 E5.65872
G1 X113.523 Y156.961 E5.74327
G1 X111.318 Y155.81 E5.826
G1 X108.915 Y154.642 E5.91486
G1 X107.958 Y154.193 E5.95002
G1 X107.127 Y153.759 E5.9812
G1 X106.46 Y153.341 E6.00738
G1 X104.007 Y151.679 E6.10593
G1 X101.877 Y150.327 E6.18984
G1 X99.708 Y149.033 E6.27385
G1 X97.514 Y147.809 E6.35741
G1 X95.263 Y146.634 E6.44186
G1 X93.012 Y145.539 E6.52512
G1 X91.959 Y145.045 E6.56381
G1 X91.128 Y144.61 E6.595
G1 X90.336 Y144.107 E6.62621
G1 X89.591 Y143.538 E6.65739
G1 X88.896 Y142.908 E6.68859
G1 X88.258 Y142.22 E6.7198
G1 X87.681 Y141.481 E6.75098
G1 X87.179 Y140.713 E6.7815
G1 X86.795 Y140.068 E6.80646
G1 X82.482 Y132.597 E7.09338
G1 X82.158 Y132.017 E7.11548
G1 X81.736 Y131.179 E7.14669
G1 X81.387 Y130.309 E7.17786
G1 X81.113 Y129.412 E7.20906
G1 X80.916 Y128.494 E7.24029
G1 X80.799 Y127.564 E7.27146
G1 X80.761 Y126.627 E7.30265
G1 X80.799 Y125.74 E7.33218
G1 X80.854 Y125.074 E7.35441
G1 X81.039 Y122.44 E7.44223
G1 X81.142 Y119.969 E7.52449
G1 X81.176 Y117.431 E7.60891
G1 X81.138 Y114.922 E7.69237
G1 X81.028 Y112.374 E7.7772
G1 X80.847 Y109.839 E7.86173
G1 X80.8 Y109.289 E7.88009
G1 X80.76 Y108.352 E7.91128
G1 X80.8 Y107.415 E7.94247
G1 X80.92 Y106.485 E7.97366
G1 X81.119 Y105.568 E8.00487
G1 X81.395 Y104.672 E8.03605
G1 X81.746 Y103.802 E8.06725
G1 X82.159 Y102.985 E8.0977
G1 X82.592 Y102.213 E8.12714
G1 X86.731 Y95.043 E8.4025
G1 X87.181 Y94.286 E8.43179
G1 X87.695 Y93.501 E8.463
G1 X88.274 Y92.763 E8.4942
G1 X88.913 Y92.077 E8.52538
G0 F6000 X89.23 Y92.326
G1 F1200 X89.916 Y91.713 E8.55598
G1 X90.653 Y91.161 E8.5866
G1 X91.435 Y90.675 E8.61723
G1 X92.13 Y90.317 E8.64323
G1 X93.208 Y89.811 E8.68284
G1 X95.508 Y88.691 E8.76792
G1 X97.76 Y87.514 E8.85244
G1 X99.948 Y86.29 E8.93582
G1 X102.129 Y84.987 E9.02032
G1 X104.27 Y83.626 E9.1047
G1 X106.678 Y81.993 E9.20147
G1 X107.462 Y81.51 E9.2321
G1 X108.285 Y81.097 E9.26273
G1 X109.14 Y80.756 E9.29334
G1 X110.022 Y80.491 E9.32398
G1 X110.923 Y80.304 E9.35458
G1 X111.837 Y80.196 E9.38519
G1 X112.474 Y80.167 E9.4064
G1 X113.163 Y80.157 E9.42932
G1 X121.668 Y80.156 E9.7122
G1 X122.523 Y80.167 E9.74064
G1 X123.442 Y80.22 E9.77125
G1 X124.353 Y80.353 E9.80188
G1 X125.249 Y80.564 E9.83249
G1 X126.123 Y80.852 E9.8631
G1 X126.969 Y81.215 E9.89372
G1 X127.781 Y81.65 E9.92436
G1 X128.319 Y81.991 E9.94554
G1 X130.794 Y83.668 E10.04498
G1 X132.925 Y85.022 E10.12895
G1 X135.072 Y86.302 E10.21209
G1 X137.285 Y87.536 E10.29636
G1 X139.543 Y88.715 E10.38109
G1 X141.944 Y89.883 E10.46989
G1 X142.871 Y90.318 E10.50395
G1 X143.687 Y90.744 E10.53457
G1 X144.462 Y91.24 E10.56517
G1 X145.192 Y91.802 E10.59581
G1 X145.87 Y92.425 E10.62644
G1 X146.492 Y93.104 E10.65706
G1 X147.052 Y93.834 E10.68766
G1 X147.477 Y94.492 E10.71372
G1 X147.904 Y95.211 E10.74153
G1 X152.094 Y102.467 E11.02021
G1 X152.493 Y103.179 E11.04736
G1 X152.907 Y104.001 E11.07797
G1 X153.247 Y104.856 E11.10857
G1 X153.513 Y105.738 E11.13921
G1 X153.7 Y106.639 E11.16982
G1 X153.809 Y107.553 E11.20044
G1 X153.838 Y108.474 E11.23108
G1 X153.802 Y109.227 E11.25616
G1 X153.751 Y109.835 E11.27645
G1 X153.564 Y112.499 E11.36527
G1 X153.458 Y115.044 E11.44999
G1 X153.424 Y117.554 E11.53348
G1 X153.462 Y120.1 E11.61817
G1 X153.571 Y122.617 E11.70197
G1 X153.752 Y125.155 E11.7866
G1 X153.802 Y125.747 E11.80636
G1 X153.84 Y126.667 E11.83698
G1 X153.803 Y127.53 E11.86571
G1 X153.752 Y128.135 E11.88591
G1 X153.564 Y130.806 E11.97496
G1 X153.458 Y133.338 E12.05925
G1 X153.424 Y135.85 E12.14281
G1 X153.462 Y138.404 E12.22776
G1 X153.569 Y140.903 E12.31096
G1 X153.753 Y143.481 E12.39692
G1 X153.802 Y144.063 E12.41635
G1 X153.839 Y144.983 E12.44697
G1 X153.796 Y145.903 E12.4776
G1 X153.673 Y146.815 E12.50821
G1 X153.471 Y147.713 E12.53883
G1 X153.193 Y148.591 E12.56946
G1 X152.839 Y149.441 E12.60008
G1 X152.493 Y150.115 E12.62528
G1 X152.052 Y150.903 E12.65531
G1 X147.851 Y158.178 E12.93473
G1 X147.479 Y158.803 E12.95892
G1 X146.974 Y159.573 E12.98954
G1 X146.404 Y160.297 E13.02019
G1 X145.774 Y160.968 E13.05081
G1 X145.088 Y161.582 E13.08143
G1 X144.351 Y162.134 E13.11205
G1 X143.569 Y162.619 E13.14266
G1 X142.748 Y163.036 E13.17328
G1 X141.894 Y163.379 E13.20389
G1 X141.013 Y163.647 E13.23452
G1 X140.112 Y163.838 E13.26516
G1 X139.198 Y163.95 E13.29578
G1 X138.524 Y163.981 E13.31822
G1 X137.837 Y163.991 E13.34108
G1 X129.181 Y163.991 E13.62898
G1 X128.477 Y163.981 E13.65239
G1 X127.558 Y163.928 E13.68301
G1 X126.647 Y163.795 E13.71363
G1 X125.751 Y163.584 E13.74425
G1 X124.877 Y163.296 E13.77485
G1 X124.031 Y162.933 E13.80547
G1 X123.219 Y162.498 E13.83611
G1 X122.678 Y162.155 E13.85742
G1 X120.233 Y160.497 E13.95567
G1 X118.092 Y159.137 E14.04003
G1 X115.921 Y157.842 E14.12411
G1 X113.739 Y156.623 E14.20724
G1 X111.499 Y155.453 E14.2913
G1 X109.11 Y154.292 E14.37964
G1 X108.128 Y153.831 E14.41572
G1 X107.312 Y153.404 E14.44635
G1 X106.684 Y153.01 E14.47101
G1 X104.215 Y151.338 E14.57019
G1 X102.075 Y149.978 E14.65452
G1 X99.928 Y148.698 E14.73766
G1 X97.715 Y147.464 E14.82194
G1 X95.457 Y146.285 E14.90666
G1 X93.048 Y145.113 E14.99576
G1 X92.129 Y144.682 E15.02952
G1 X91.313 Y144.256 E15.06014
G1 X90.538 Y143.76 E15.09074
G1 X89.808 Y143.198 E15.12138
G1 X89.13 Y142.575 E15.15201
G1 X88.508 Y141.896 E15.18263
G1 X87.948 Y141.166 E15.21324
G1 X87.523 Y140.508 E15.23929
G1 X87.067 Y139.741 E15.26897
G1 X82.905 Y132.532 E15.54583
G1 X82.507 Y131.821 E15.57293
G1 X82.093 Y130.999 E15.60354
G1 X81.753 Y130.144 E15.63415
G1 X81.487 Y129.262 E15.66479
G1 X81.3 Y128.361 E15.69539
G1 X81.191 Y127.447 E15.72601
G1 X81.162 Y126.526 E15.75666
G1 X81.198 Y125.773 E15.78173
G1 X81.253 Y125.113 E15.80376
G1 X81.436 Y122.501 E15.89085
G1 X81.542 Y119.956 E15.97557
G1 X81.576 Y117.431 E16.05956
G1 X81.538 Y114.9 E16.14375
G1 X81.428 Y112.357 E16.22841
G1 X81.249 Y109.851 E16.31197
G1 X81.198 Y109.255 E16.33186
G1 X81.16 Y108.335 E16.36249
G1 X81.202 Y107.415 E16.39312
G1 X81.323 Y106.503 E16.42372
G1 X81.523 Y105.604 E16.45435
G1 X81.8 Y104.726 E16.48497
G1 X82.152 Y103.876 E16.51557
G1 X82.508 Y103.181 E16.54154
G1 X82.867 Y102.539 E16.56601
G1 X87.151 Y95.118 E16.85101
G1 X87.525 Y94.49 E16.87532
G1 X88.03 Y93.72 E16.90595
G1 X88.6 Y92.997 E16.93657
G1 X89.23 Y92.326 E16.96718
G0 F6000 X89.546 Y92.577
G1 F1200 X90.223 Y91.979 E16.99722
G1 X90.95 Y91.443 E17.02726
G1 X91.722 Y90.974 E17.05731
G1 X92.3 Y90.68 E17.07888
G1 X93.292 Y90.215 E17.11532
G1 X95.717 Y89.033 E17.20504
G1 X97.949 Y87.867 E17.2888
G1 X100.169 Y86.625 E17.37341
G1 X102.328 Y85.335 E17.45706
G1 X104.48 Y83.967 E17.54187
G1 X106.903 Y82.324 E17.63924
G1 X107.672 Y81.851 E17.66927
G1 X108.48 Y81.448 E17.6993
G1 X109.321 Y81.117 E17.72936
G1 X110.187 Y80.862 E17.75939
G1 X111.073 Y80.685 E17.78944
G1 X111.97 Y80.587 E17.81945
G1 X112.48 Y80.567 E17.83642
G1 X113.317 Y80.556 E17.86426
G1 X121.668 Y80.556 E18.14202
G1 X122.517 Y80.567 E18.17026
G1 X123.418 Y80.62 E18.20028
G1 X124.312 Y80.752 E18.23034
G1 X125.19 Y80.963 E18.26037
G1 X126.046 Y81.251 E18.29041
G1 X126.873 Y81.613 E18.32044
G1 X127.665 Y82.047 E18.35047
G1 X128.094 Y82.322 E18.36742
G1 X130.584 Y84.009 E18.46746
G1 X132.685 Y85.344 E18.55025
G1 X134.903 Y86.667 E18.63615
G1 X137.099 Y87.891 E18.71977
G1 X139.347 Y89.065 E18.80412
G1 X141.749 Y90.233 E18.89295
G1 X142.701 Y90.68 E18.92793
G1 X143.501 Y91.099 E18.95797
G1 X144.261 Y91.588 E18.98803
G1 X144.974 Y92.141 E19.01804
G1 X145.636 Y92.756 E19.04809
G1 X146.24 Y93.427 E19.07812
G1 X146.783 Y94.148 E19.10814
G1 X147.133 Y94.696 E19.12977
G1 X147.558 Y95.411 E19.15743
G1 X151.748 Y102.667 E19.43611
G1 X152.144 Y103.374 E19.46307
G1 X152.549 Y104.181 E19.4931
G1 X152.881 Y105.021 E19.52314
G1 X153.138 Y105.886 E19.55315
G1 X153.316 Y106.772 E19.58321
G1 X153.416 Y107.669 E19.61323
G1 X153.437 Y108.572 E19.64327
G1 X153.404 Y109.194 E19.66399
G1 X153.349 Y109.854 E19.68602
G1 X153.164 Y112.49 E19.77391
G1 X153.058 Y115.021 E19.85816
G1 X153.024 Y117.555 E19.94245
G1 X153.062 Y120.088 E20.02671
G1 X153.173 Y122.66 E20.11233
G1 X153.353 Y125.193 E20.19679
G1 X153.403 Y125.781 E20.21642
G1 X153.44 Y126.684 E20.24648
G1 X153.405 Y127.496 E20.27351
G1 X153.348 Y128.18 E20.29634
G1 X153.163 Y130.796 E20.38357
G1 X153.058 Y133.317 E20.46749
G1 X153.024 Y135.85 E20.55174
G1 X153.062 Y138.391 E20.63627
G1 X153.171 Y140.948 E20.72139
G1 X153.349 Y143.438 E20.80442
G1 X153.404 Y144.096 E20.82638
G1 X153.439 Y144.999 E20.85644
G1 X153.394 Y145.901 E20.88647
G1 X153.27 Y146.795 E20.91649
G1 X153.067 Y147.675 E20.94653
G1 X152.787 Y148.534 E20.97658
G1 X152.432 Y149.364 E21.00661
G1 X152.144 Y149.92 E21.02743
G1 X151.706 Y150.703 E21.05727
G1 X147.576 Y157.857 E21.33202
G1 X147.135 Y158.599 E21.36073
G1 X146.639 Y159.354 E21.39077
G1 X146.079 Y160.062 E21.4208
G1 X145.457 Y160.717 E21.45084
G1 X144.781 Y161.316 E21.48088
G1 X144.054 Y161.852 E21.51092
G1 X143.283 Y162.321 E21.54094
G1 X142.473 Y162.721 E21.57099
G1 X141.63 Y163.047 E21.60105
G1 X140.763 Y163.297 E21.63106
G1 X139.876 Y163.47 E21.66112
G1 X138.978 Y163.564 E21.69115
G1 X138.518 Y163.581 E21.70646
G1 X137.683 Y163.592 E21.73423
G1 X129.187 Y163.591 E22.01681
G1 X128.483 Y163.581 E22.04023
G1 X127.582 Y163.528 E22.07025
G1 X126.688 Y163.396 E22.1003
G1 X125.81 Y163.185 E22.13034
G1 X124.954 Y162.897 E22.16038
G1 X124.127 Y162.535 E22.1904
G1 X123.335 Y162.101 E22.22044
G1 X122.903 Y161.824 E22.23751
G1 X120.443 Y160.156 E22.33636
G1 X118.332 Y158.814 E22.41956
G1 X116.115 Y157.492 E22.50541
G1 X113.94 Y156.277 E22.58828
G1 X111.652 Y155.083 E22.67412
G1 X109.305 Y153.941 E22.76093
G1 X108.298 Y153.469 E22.79792
G1 X107.498 Y153.049 E22.82797
G1 X106.908 Y152.679 E22.85113
G1 X104.409 Y150.986 E22.95153
G1 X102.315 Y149.656 E23.03403
G1 X100.097 Y148.333 E23.11993
G1 X97.901 Y147.109 E23.20355
G1 X95.653 Y145.935 E23.2879
G1 X93.251 Y144.767 E23.37674
G1 X92.299 Y144.32 E23.41172
G1 X91.499 Y143.901 E23.44175
G1 X90.739 Y143.412 E23.47181
G1 X90.026 Y142.859 E23.50182
G1 X89.364 Y142.244 E23.53188
G1 X88.76 Y141.573 E23.5619
G1 X88.217 Y140.852 E23.59192
G1 X87.867 Y140.304 E23.61355
G1 X87.413 Y139.541 E23.64308
G1 X83.251 Y132.332 E23.91995
G1 X82.856 Y131.626 E23.94685
G1 X82.451 Y130.819 E23.97688
G1 X82.119 Y129.979 E24.00693
G1 X81.862 Y129.114 E24.03694
G1 X81.684 Y128.228 E24.067
G1 X81.584 Y127.331 E24.09701
G1 X81.563 Y126.428 E24.12706
G1 X81.596 Y125.806 E24.14777
G1 X81.653 Y125.118 E24.17073
G1 X81.837 Y122.497 E24.25812
G1 X81.942 Y119.979 E24.34195
G1 X81.976 Y117.418 E24.42713
G1 X81.938 Y114.912 E24.51049
G1 X81.827 Y112.338 E24.59618
G1 X81.645 Y109.787 E24.68125
G1 X81.597 Y109.221 E24.70014
G1 X81.56 Y108.319 E24.73016
G1 X81.603 Y107.417 E24.7602
G1 X81.726 Y106.522 E24.79025
G1 X81.927 Y105.641 E24.8203
G1 X82.206 Y104.782 E24.85034
G1 X82.559 Y103.951 E24.88037
G1 X82.857 Y103.376 E24.90191
G1 X83.285 Y102.613 E24.93101
G1 X87.494 Y95.323 E25.21099
G1 X87.868 Y94.695 E25.2353
G1 X88.364 Y93.94 E25.26534
G1 X88.925 Y93.232 E25.29539
G1 X89.546 Y92.577 E25.32541
G1 F2700 E20.32541
;MESH:17mm-hex (1).stl(3)
G0 F6000 X98.729 Y105.8
G0 X103.205 Y113.985
;TYPE:WALL-INNER
G1 F2700 E25.32541
G1 F1200 X103.011 Y114.139 E25.33365
G1 X102.823 Y114.201 E25.34023
G1 X100.258 Y114.201 E25.42554
G1 X99.99 Y114.139 E25.43469
G1 X99.795 Y113.984 E25.44298
G1 X99.692 Y113.803 E25.4499
G1 X99.658 Y113.6 E25.45675
G1 X99.658 Y111.378 E25.53065
G1 X98.954 Y110.907 E25.55883
G1 X98.214 Y109.799 E25.60314
G1 X98.145 Y109.617 E25.60961
G1 X97.915 Y108.469 E25.64856
G1 X97.915 Y108.233 E25.65641
G1 X98.167 Y106.974 E25.69911
G1 X98.947 Y105.798 E25.74605
G1 X99.659 Y105.324 E25.7745
G1 X99.658 Y103.102 E25.8484
G1 X99.692 Y102.899 E25.85524
G1 X99.796 Y102.717 E25.86222
G1 X99.99 Y102.563 E25.87046
G1 X100.178 Y102.501 E25.87704
G1 X102.743 Y102.501 E25.96235
G1 X103.011 Y102.563 E25.9715
G1 X103.205 Y102.717 E25.97974
G1 X103.309 Y102.899 E25.98671
G1 X103.343 Y103.102 E25.99356
G1 X103.343 Y105.324 E26.06746
G1 X104.053 Y105.797 E26.09584
G1 X104.833 Y106.971 E26.14272
G1 X105.085 Y108.233 E26.18552
G1 X105.085 Y108.469 E26.19337
G1 X104.856 Y109.616 E26.23227
G1 X104.788 Y109.799 E26.23876
G1 X104.082 Y110.856 E26.28104
