;FLAVOR:Marlin
;TIME:13557
;Filament used: 11.4718m
;Layer height: 0.2
;MINX:32.8
;MINY:66.921
;MINZ:0.2
;MAXX:151
;MAXY:168.572
;MAXZ:10
;Generated with Cura_SteamEngine 5.3.0
M140 S50
M105
M190 S50
M104 S205
M105
M109 S205
M82 ;absolute extrusion mode
; Ender 3 Custom Start G-code
G92 E0 ; Reset Extruder
G28 ; Home all axes
G1 Z2.0 F3000 ; Move Z Axis up little to prevent scratching of Heat Bed
G1 X0.1 Y20 Z0.3 F5000.0 ; Move to start position
G1 X0.1 Y200.0 Z0.3 F1500.0 E15 ; Draw the first line
G1 X0.4 Y200.0 Z0.3 F5000.0 ; Move to side a little
G1 X0.4 Y20 Z0.3 F1500.0 E30 ; Draw the second line
G92 E0 ; Reset Extruder
G1 Z2.0 F3000 ; Move Z Axis up little to prevent scratching of Heat Bed
G1 X5 Y20 Z0.3 F5000.0 ; Move over to prevent blob squish
G92 E0
G92 E0
G1 F2700 E-5
;LAYER_COUNT:50
;LAYER:0
M107
G0 F6000 X59.69 Y70.666 Z0.2
;TYPE:SKIRT
G1 F2700 E0
G1 F1200 X60.402 Y70.111 E0.03003
G1 X61.161 Y69.621 E0.06007
G1 X61.96 Y69.2 E0.09011
G1 X62.793 Y68.851 E0.12015
G1 X63.654 Y68.578 E0.15019
G1 X64.535 Y68.381 E0.18022
G1 X65.431 Y68.264 E0.21027
G1 X66.025 Y68.23 E0.23006
G1 X66.629 Y68.217 E0.25016
G1 X70.528 Y68.217 E0.37984
G1 X71.459 Y68.234 E0.41081
G1 X72.142 Y68.264 E0.43355
G1 X73.741 Y68.354 E0.48681
G1 X76.285 Y68.426 E0.57146
G1 X78.818 Y68.426 E0.65571
G1 X81.372 Y68.354 E0.74069
G1 X83.503 Y68.241 E0.81167
G1 X84.078 Y68.221 E0.8308
G1 X84.992 Y68.217 E0.8612
G1 X87.598 Y68.18 E0.94789
G1 X90.151 Y68.072 E1.03288
G1 X92.868 Y67.878 E1.12347
G1 X94.141 Y67.768 E1.16597
G1 X94.722 Y67.734 E1.18533
G1 X95.331 Y67.721 E1.20559
G1 X99.208 Y67.723 E1.33454
G1 X100.168 Y67.74 E1.36647
G1 X100.779 Y67.766 E1.38681
G1 X102.333 Y67.855 E1.43858
G1 X104.891 Y67.93 E1.5237
G1 X107.423 Y67.932 E1.60791
G1 X109.974 Y67.862 E1.69279
G1 X112.247 Y67.744 E1.7685
G1 X113.081 Y67.721 E1.79625
G1 X116.971 Y67.723 E1.92563
G1 X117.646 Y67.733 E1.94808
G1 X118.548 Y67.786 E1.97813
G1 X119.441 Y67.919 E2.00816
G1 X120.319 Y68.131 E2.0382
G1 X121.175 Y68.419 E2.06824
G1 X122.002 Y68.782 E2.09828
G1 X122.794 Y69.216 E2.12832
G1 X123.544 Y69.719 E2.15835
G1 X124.246 Y70.286 E2.18837
G1 X124.896 Y70.913 E2.21841
G1 X125.488 Y71.596 E2.24847
G1 X126.017 Y72.327 E2.27848
G1 X126.48 Y73.103 E2.30853
G1 X126.871 Y73.917 E2.33857
G1 X127.19 Y74.762 E2.36861
G1 X127.432 Y75.632 E2.39865
G1 X127.573 Y76.356 E2.42318
G1 X127.969 Y78.888 E2.50842
G1 X128.437 Y81.395 E2.59324
G1 X128.964 Y83.838 E2.67636
G1 X129.574 Y86.317 E2.76128
G1 X130.256 Y88.785 E2.84644
G1 X130.993 Y91.192 E2.93016
G1 X131.813 Y93.619 E3.01537
G1 X132.689 Y95.987 E3.09935
G1 X133.63 Y98.325 E3.18317
G1 X134.645 Y100.658 E3.26779
G1 X135.73 Y102.97 E3.35274
G1 X136.894 Y105.276 E3.43865
G1 X138.069 Y107.45 E3.52084
G1 X139.415 Y109.784 E3.61046
G1 X139.831 Y110.586 E3.64051
G1 X140.175 Y111.421 E3.67054
G1 X140.443 Y112.283 E3.70057
G1 X140.559 Y112.774 E3.71735
G1 X141.062 Y115.159 E3.79842
G1 X141.668 Y117.683 E3.88475
G1 X142.312 Y120.071 E3.96701
G1 X143.058 Y122.557 E4.05334
G1 X143.85 Y124.944 E4.13699
G1 X144.723 Y127.348 E4.22206
G1 X145.648 Y129.688 E4.30574
G1 X146.51 Y131.714 E4.37898
G1 X149.064 Y137.524 E4.59006
G1 X149.388 Y138.29 E4.61773
G1 X149.702 Y139.137 E4.64777
G1 X149.94 Y140.009 E4.67783
G1 X150.099 Y140.897 E4.70784
G1 X150.185 Y141.928 E4.74225
G1 X150.198 Y142.503 E4.76138
G1 X150.2 Y156.342 E5.22167
G1 X150.19 Y157.196 E5.25007
G1 X150.139 Y158.098 E5.28012
G1 X150.008 Y158.992 E5.31017
G1 X149.799 Y159.87 E5.34019
G1 X149.513 Y160.727 E5.37024
G1 X149.152 Y161.555 E5.40028
G1 X148.72 Y162.347 E5.43029
G1 X148.219 Y163.099 E5.46034
G1 X147.653 Y163.803 E5.49039
G1 X147.028 Y164.454 E5.5204
G1 X146.347 Y165.048 E5.55046
G1 X145.616 Y165.579 E5.58051
G1 X144.842 Y166.043 E5.61052
G1 X144.029 Y166.437 E5.64057
G1 X143.185 Y166.757 E5.67059
G1 X142.315 Y167.002 E5.70066
G1 X141.428 Y167.168 E5.73067
G1 X140.279 Y167.266 E5.76902
G1 X139.67 Y167.279 E5.78928
G1 X134.551 Y167.277 E5.95954
G1 X133.859 Y167.267 E5.98256
G1 X132.839 Y167.201 E6.01656
G1 X129.943 Y166.868 E6.11351
G1 X127.395 Y166.65 E6.19857
G1 X124.902 Y166.507 E6.28162
G1 X122.333 Y166.434 E6.3671
G1 X119.799 Y166.432 E6.45139
G1 X117.268 Y166.503 E6.5356
G1 X114.728 Y166.646 E6.62021
G1 X112.174 Y166.862 E6.70546
G1 X109.135 Y167.205 E6.80718
G1 X108.278 Y167.266 E6.83576
G1 X107.67 Y167.279 E6.85599
G1 X102.551 Y167.277 E7.02625
G1 X101.855 Y167.267 E7.0494
G1 X101.285 Y167.243 E7.06837
G1 X100.795 Y167.208 E7.08471
G1 X98.17 Y167.06 E7.17216
G1 X95.631 Y166.987 E7.25664
G1 X93.097 Y166.987 E7.34092
G1 X90.57 Y167.058 E7.425
G1 X88.029 Y167.202 E7.50965
G1 X85.43 Y167.422 E7.5964
G1 X84.071 Y167.567 E7.64186
G1 X82.952 Y167.696 E7.67933
G1 X82.09 Y167.759 E7.70807
G1 X81.486 Y167.772 E7.72817
G1 X76.362 Y167.772 E7.89859
G1 X75.635 Y167.761 E7.92277
G1 X74.626 Y167.695 E7.95641
G1 X71.695 Y167.359 E8.05453
G1 X69.132 Y167.141 E8.14008
G1 X66.6 Y166.999 E8.22443
G1 X64.066 Y166.928 E8.30874
G1 X61.532 Y166.928 E8.39303
G1 X58.968 Y167.001 E8.47834
G1 X56.462 Y167.144 E8.56182
G1 X53.957 Y167.358 E8.64544
G1 X52.424 Y167.542 E8.6968
G1 X52.069 Y167.569 E8.70864
G1 X50.949 Y167.697 E8.74613
G1 X50.075 Y167.759 E8.77528
G1 X49.47 Y167.772 E8.7954
G1 X44.386 Y167.772 E8.9645
G1 X43.68 Y167.763 E8.98798
G1 X42.778 Y167.712 E9.01803
G1 X41.885 Y167.581 E9.04805
G1 X41.006 Y167.371 E9.07811
G1 X40.15 Y167.085 E9.10812
G1 X39.322 Y166.724 E9.13817
G1 X38.529 Y166.291 E9.16822
G1 X37.778 Y165.789 E9.19826
G1 X37.074 Y165.224 E9.22829
G1 X36.423 Y164.598 E9.25833
G1 X35.83 Y163.917 E9.28836
G1 X35.299 Y163.186 E9.31841
G1 X34.835 Y162.411 E9.34845
G1 X34.442 Y161.599 E9.37846
G1 X34.122 Y160.754 E9.40851
G1 X33.877 Y159.885 E9.43854
G1 X33.711 Y158.997 E9.46859
G1 X33.614 Y157.852 E9.50681
G1 X33.6 Y157.21 E9.52816
G1 X33.6 Y143.452 E9.98576
G1 X33.615 Y142.552 E10.0157
G1 X33.671 Y141.651 E10.04572
G1 X33.807 Y140.758 E10.07576
G1 X34.021 Y139.881 E10.10579
G1 X34.349 Y138.934 E10.13912
G1 X34.556 Y138.432 E10.15718
G1 X37.312 Y132.157 E10.38513
G1 X38.315 Y129.784 E10.47082
G1 X39.233 Y127.428 E10.55492
G1 X40.105 Y124.991 E10.64101
G1 X40.871 Y122.637 E10.72334
G1 X41.604 Y120.153 E10.80948
G1 X42.25 Y117.711 E10.8935
G1 X42.835 Y115.211 E10.97889
G1 X43.239 Y113.283 E11.04441
G1 X43.463 Y112.408 E11.07445
G1 X43.764 Y111.556 E11.10451
G1 X44.139 Y110.735 E11.13453
G1 X44.38 Y110.29 E11.15136
G1 X45.85 Y107.733 E11.24946
G1 X47.064 Y105.468 E11.33493
G1 X48.175 Y103.248 E11.4175
G1 X49.271 Y100.892 E11.50392
G1 X50.263 Y98.593 E11.5872
G1 X51.219 Y96.192 E11.67316
G1 X52.082 Y93.832 E11.75674
G1 X52.88 Y91.441 E11.84057
G1 X53.625 Y88.982 E11.92603
G1 X54.286 Y86.559 E12.00956
G1 X54.888 Y84.071 E12.0947
G1 X55.415 Y81.588 E12.17913
G1 X56.048 Y78.018 E12.29972
G1 X56.233 Y76.841 E12.33935
G1 X56.413 Y75.956 E12.36938
G1 X56.67 Y75.09 E12.39943
G1 X57.003 Y74.251 E12.42945
G1 X57.409 Y73.444 E12.4595
G1 X57.884 Y72.676 E12.48953
G1 X58.426 Y71.953 E12.51959
G1 X59.029 Y71.282 E12.54959
G1 X59.69 Y70.666 E12.57964
G0 F6000 X59.417 Y70.373
G1 F1200 X60.185 Y69.775 E12.61202
G1 X60.975 Y69.267 E12.64326
G1 X61.805 Y68.831 E12.67444
G1 X62.638 Y68.482 E12.70448
G1 X63.533 Y68.197 E12.73572
G1 X64.483 Y67.984 E12.7681
G1 X65.379 Y67.867 E12.79816
G1 X66.016 Y67.83 E12.81938
G1 X66.62 Y67.817 E12.83947
G1 X70.535 Y67.817 E12.96969
G1 X71.477 Y67.834 E13.00102
G1 X72.164 Y67.865 E13.02389
G1 X73.752 Y67.954 E13.07679
G1 X76.296 Y68.026 E13.16144
G1 X78.807 Y68.026 E13.24496
G1 X81.361 Y67.954 E13.32994
G1 X83.489 Y67.841 E13.40082
G1 X84.076 Y67.821 E13.42035
G1 X84.986 Y67.817 E13.45062
G1 X87.581 Y67.78 E13.53694
G1 X90.134 Y67.672 E13.62193
G1 X92.834 Y67.479 E13.71196
G1 X94.118 Y67.369 E13.75482
G1 X94.713 Y67.334 E13.77464
G1 X95.331 Y67.321 E13.7952
G1 X99.215 Y67.323 E13.92439
G1 X100.185 Y67.34 E13.95665
G1 X100.802 Y67.367 E13.97719
G1 X102.345 Y67.455 E14.0286
G1 X104.903 Y67.53 E14.11371
G1 X107.412 Y67.532 E14.19716
G1 X109.963 Y67.462 E14.28204
G1 X112.226 Y67.345 E14.35741
G1 X113.081 Y67.321 E14.38586
G1 X116.977 Y67.323 E14.51544
G1 X117.669 Y67.334 E14.53846
G1 X118.607 Y67.39 E14.56971
G1 X119.5 Y67.523 E14.59974
G1 X120.413 Y67.742 E14.63097
G1 X121.303 Y68.04 E14.66219
G1 X122.194 Y68.431 E14.69455
G1 X123.017 Y68.884 E14.72579
G1 X123.767 Y69.387 E14.75583
G1 X124.524 Y69.998 E14.78819
G1 X125.174 Y70.625 E14.81822
G1 X125.812 Y71.361 E14.85062
G1 X126.361 Y72.122 E14.88183
G1 X126.824 Y72.898 E14.91189
G1 X127.232 Y73.744 E14.94313
G1 X127.575 Y74.655 E14.9755
G1 X127.825 Y75.556 E15.0066
G1 X127.968 Y76.294 E15.0316
G1 X128.362 Y78.815 E15.11647
G1 X128.828 Y81.311 E15.20092
G1 X129.352 Y83.742 E15.28363
G1 X129.96 Y86.21 E15.36817
G1 X130.641 Y88.678 E15.45333
G1 X131.372 Y91.064 E15.53633
G1 X132.188 Y93.48 E15.62114
G1 X133.06 Y95.838 E15.70476
G1 X133.997 Y98.165 E15.7882
G1 X135.012 Y100.498 E15.87282
G1 X136.087 Y102.79 E15.95702
G1 X137.246 Y105.086 E16.04256
G1 X138.416 Y107.25 E16.12438
G1 X139.762 Y109.584 E16.214
G1 X140.201 Y110.434 E16.24582
G1 X140.557 Y111.302 E16.27702
G1 X140.825 Y112.164 E16.30704
G1 X140.95 Y112.691 E16.32506
G1 X141.451 Y115.066 E16.40579
G1 X142.054 Y117.579 E16.49174
G1 X142.695 Y119.956 E16.57363
G1 X143.438 Y122.431 E16.65958
G1 X144.226 Y124.807 E16.74283
G1 X145.095 Y127.201 E16.82754
G1 X146.016 Y129.531 E16.91087
G1 X146.876 Y131.553 E16.98396
G1 X149.432 Y137.368 E17.19522
G1 X149.763 Y138.151 E17.2235
G1 X150.088 Y139.032 E17.25473
G1 X150.334 Y139.938 E17.28595
G1 X150.498 Y140.864 E17.31723
G1 X150.585 Y141.919 E17.35244
G1 X150.598 Y142.503 E17.37187
G1 X150.6 Y156.347 E17.83232
G1 X150.589 Y157.219 E17.86133
G1 X150.535 Y158.156 E17.89254
G1 X150.404 Y159.05 E17.9226
G1 X150.188 Y159.963 E17.9538
G1 X149.88 Y160.887 E17.9862
G1 X149.519 Y161.715 E18.01624
G1 X149.053 Y162.569 E18.0486
G1 X148.531 Y163.35 E18.07984
G1 X147.965 Y164.054 E18.10989
G1 X147.317 Y164.731 E18.14105
G1 X146.582 Y165.372 E18.17349
G1 X145.851 Y165.903 E18.20354
G1 X145.048 Y166.386 E18.23471
G1 X144.171 Y166.811 E18.26712
G1 X143.327 Y167.131 E18.29714
G1 X142.389 Y167.395 E18.32955
G1 X141.462 Y167.567 E18.36091
G1 X140.313 Y167.665 E18.39927
G1 X139.67 Y167.679 E18.42066
G1 X134.545 Y167.677 E18.59112
G1 X133.833 Y167.666 E18.6148
G1 X132.793 Y167.598 E18.64947
G1 X129.909 Y167.267 E18.74602
G1 X127.361 Y167.048 E18.83108
G1 X124.891 Y166.907 E18.91336
G1 X122.322 Y166.834 E18.99884
G1 X119.81 Y166.832 E19.08239
G1 X117.279 Y166.903 E19.16661
G1 X114.762 Y167.045 E19.25046
G1 X112.208 Y167.26 E19.3357
G1 X109.163 Y167.604 E19.43762
G1 X108.287 Y167.666 E19.46683
G1 X107.67 Y167.679 E19.48736
G1 X102.545 Y167.677 E19.65782
G1 X101.838 Y167.667 E19.68133
G1 X101.257 Y167.642 E19.70068
G1 X100.767 Y167.607 E19.71702
G1 X98.159 Y167.46 E19.8039
G1 X95.62 Y167.387 E19.88838
G1 X93.108 Y167.387 E19.97193
G1 X90.581 Y167.458 E20.05601
G1 X88.063 Y167.601 E20.13989
G1 X85.464 Y167.821 E20.22665
G1 X84.113 Y167.964 E20.27183
G1 X82.981 Y168.095 E20.30973
G1 X82.099 Y168.159 E20.33914
G1 X81.495 Y168.172 E20.35924
G1 X76.356 Y168.172 E20.53016
G1 X75.609 Y168.16 E20.55501
G1 X74.58 Y168.092 E20.58931
G1 X71.661 Y167.758 E20.68703
G1 X69.098 Y167.539 E20.77259
G1 X66.589 Y167.399 E20.85617
G1 X64.055 Y167.328 E20.94048
G1 X61.543 Y167.328 E21.02403
G1 X58.979 Y167.401 E21.10934
G1 X56.496 Y167.543 E21.19206
G1 X53.991 Y167.757 E21.27568
G1 X52.454 Y167.941 E21.32717
G1 X52.099 Y167.968 E21.33901
G1 X50.977 Y168.096 E21.37657
G1 X50.084 Y168.159 E21.40635
G1 X49.479 Y168.172 E21.42647
G1 X44.381 Y168.172 E21.59603
G1 X43.657 Y168.162 E21.62012
G1 X42.72 Y168.108 E21.65133
G1 X41.827 Y167.977 E21.68135
G1 X40.913 Y167.76 E21.7126
G1 X39.99 Y167.452 E21.74496
G1 X39.162 Y167.091 E21.775
G1 X38.307 Y166.624 E21.8074
G1 X37.556 Y166.122 E21.83745
G1 X36.824 Y165.536 E21.86864
G1 X36.121 Y164.861 E21.90105
G1 X35.528 Y164.18 E21.93109
G1 X34.975 Y163.421 E21.96232
G1 X34.475 Y162.585 E21.99472
G1 X34.068 Y161.741 E22.02588
G1 X33.737 Y160.863 E22.05709
G1 X33.492 Y159.994 E22.08712
G1 X33.312 Y159.031 E22.11971
G1 X33.215 Y157.886 E22.15793
G1 X33.2 Y157.219 E22.18012
G1 X33.2 Y143.445 E22.63824
G1 X33.216 Y142.527 E22.66878
G1 X33.272 Y141.626 E22.6988
G1 X33.418 Y140.663 E22.7312
G1 X33.632 Y139.786 E22.76122
G1 X33.979 Y138.782 E22.79656
G1 X34.19 Y138.271 E22.81494
G1 X36.946 Y131.996 E23.04289
G1 X37.942 Y129.639 E23.128
G1 X38.86 Y127.283 E23.2121
G1 X39.729 Y124.856 E23.29784
G1 X40.487 Y122.524 E23.3794
G1 X41.22 Y120.04 E23.46554
G1 X41.864 Y117.609 E23.54918
G1 X42.446 Y115.12 E23.6342
G1 X42.851 Y113.184 E23.69998
G1 X43.075 Y112.309 E23.73003
G1 X43.4 Y111.39 E23.76245
G1 X43.787 Y110.545 E23.79336
G1 X44.033 Y110.091 E23.81053
G1 X45.497 Y107.544 E23.90824
G1 X46.711 Y105.279 E23.99372
G1 X47.817 Y103.069 E24.07591
G1 X48.909 Y100.723 E24.16198
G1 X49.891 Y98.445 E24.24449
G1 X50.847 Y96.044 E24.33044
G1 X51.706 Y93.695 E24.41363
G1 X52.499 Y91.32 E24.49691
G1 X53.242 Y88.866 E24.58219
G1 X53.9 Y86.454 E24.66534
G1 X54.499 Y83.977 E24.7501
G1 X55.021 Y81.518 E24.83371
G1 X55.654 Y77.948 E24.9543
G1 X55.841 Y76.761 E24.99427
G1 X56.021 Y75.876 E25.02431
G1 X56.298 Y74.942 E25.05671
G1 X56.631 Y74.103 E25.08673
G1 X57.052 Y73.264 E25.11796
G1 X57.564 Y72.436 E25.15033
G1 X58.128 Y71.686 E25.18155
G1 X58.756 Y70.989 E25.21275
G1 X59.417 Y70.373 E25.2428
G0 F6000 X59.171 Y70.057
G1 F1200 X59.939 Y69.459 E25.27518
G1 X60.789 Y68.913 E25.30878
G1 X61.65 Y68.462 E25.3411
G1 X62.483 Y68.113 E25.37114
G1 X63.445 Y67.807 E25.40472
G1 X64.431 Y67.587 E25.43832
G1 X65.327 Y67.47 E25.46837
G1 X66.007 Y67.43 E25.49103
G1 X66.611 Y67.417 E25.51112
G1 X70.542 Y67.417 E25.64187
G1 X71.495 Y67.434 E25.67357
G1 X73.763 Y67.554 E25.74911
G1 X76.307 Y67.626 E25.83376
G1 X78.796 Y67.626 E25.91654
G1 X81.35 Y67.554 E26.00152
G1 X83.475 Y67.441 E26.0723
G1 X84.074 Y67.421 E26.09224
G1 X84.98 Y67.417 E26.12237
G1 X87.564 Y67.38 E26.20832
G1 X90.117 Y67.272 E26.29331
G1 X92.8 Y67.08 E26.38278
G1 X94.095 Y66.97 E26.426
G1 X94.705 Y66.934 E26.44633
G1 X95.331 Y66.921 E26.46715
G1 X99.222 Y66.923 E26.59657
G1 X100.202 Y66.94 E26.62917
G1 X100.825 Y66.968 E26.64991
G1 X102.357 Y67.055 E26.70095
G1 X104.915 Y67.13 E26.78606
G1 X107.401 Y67.132 E26.86875
G1 X109.952 Y67.062 E26.95363
G1 X112.205 Y66.946 E27.02866
G1 X113.081 Y66.921 E27.05781
G1 X116.983 Y66.923 E27.18759
G1 X117.693 Y66.935 E27.21121
G1 X118.666 Y66.994 E27.24363
G1 X119.559 Y67.127 E27.27366
G1 X120.506 Y67.353 E27.30604
G1 X121.464 Y67.674 E27.33964
G1 X122.355 Y68.065 E27.37201
G1 X123.24 Y68.552 E27.4056
G1 X123.99 Y69.055 E27.43564
G1 X124.802 Y69.71 E27.47034
G1 X125.452 Y70.337 E27.50038
G1 X126.136 Y71.127 E27.53513
G1 X126.705 Y71.917 E27.56751
G1 X127.168 Y72.693 E27.59757
G1 X127.606 Y73.603 E27.63116
G1 X127.96 Y74.548 E27.66472
G1 X128.218 Y75.48 E27.69689
G1 X128.363 Y76.232 E27.72236
G1 X128.755 Y78.742 E27.80685
G1 X129.219 Y81.227 E27.89093
G1 X129.74 Y83.646 E27.97323
G1 X130.346 Y86.104 E28.05744
G1 X131.026 Y88.572 E28.14258
G1 X131.751 Y90.936 E28.22482
G1 X132.563 Y93.341 E28.30925
G1 X133.431 Y95.689 E28.39251
G1 X134.364 Y98.005 E28.47556
G1 X135.379 Y100.338 E28.56018
G1 X136.444 Y102.61 E28.64363
G1 X137.598 Y104.896 E28.72881
G1 X138.763 Y107.05 E28.81026
G1 X140.109 Y109.384 E28.89987
G1 X140.571 Y110.282 E28.93346
G1 X140.939 Y111.183 E28.96583
G1 X141.207 Y112.045 E28.99585
G1 X141.341 Y112.608 E29.0151
G1 X141.84 Y114.973 E29.09549
G1 X142.44 Y117.475 E29.18107
G1 X143.078 Y119.841 E29.26257
G1 X143.818 Y122.305 E29.34814
G1 X144.606 Y124.681 E29.4314
G1 X145.467 Y127.054 E29.51536
G1 X146.384 Y129.374 E29.59833
G1 X147.242 Y131.392 E29.67127
G1 X149.8 Y137.212 E29.88271
G1 X150.138 Y138.013 E29.91163
G1 X150.474 Y138.927 E29.94402
G1 X150.728 Y139.868 E29.97644
G1 X150.897 Y140.831 E30.00896
G1 X150.985 Y141.91 E30.04496
G1 X150.998 Y142.503 E30.06469
G1 X151 Y156.352 E30.52531
G1 X150.988 Y157.242 E30.55491
G1 X150.931 Y158.214 E30.5873
G1 X150.8 Y159.108 E30.61735
G1 X150.577 Y160.055 E30.64971
G1 X150.247 Y161.047 E30.68448
